;FLAVOR:Marlin
;TIME:16436
;Filament used: 11.3257m
;Layer height: 0.2
;MINX:49.1
;MINY:84.1
;MINZ:0.2
;MAXX:200.9
;MAXY:165.9
;MAXZ:49
;POSTPROCESSED
;Generated with Cura_SteamEngine 4.10.0
M140 S70
M105
M190 S70
M104 S210
M105
M109 S210
M82 ;absolute extrusion mode
; Ender 3 Custom Start G-code
G92 E0 ; Reset Extruder
G28 ; Home all axes
G1 Z2.0 F3000 ; Move Z Axis up little to prevent scratching of Heat Bed
G1 X0.1 Y20 Z0.3 F5000.0 ; Move to start position
G1 X0.1 Y200.0 Z0.3 F1500.0 E15 ; Draw the first line
G1 X0.4 Y200.0 Z0.3 F5000.0 ; Move to side a little
G1 X0.4 Y20 Z0.3 F1500.0 E30 ; Draw the second line
G92 E0 ; Reset Extruder
G1 Z2.0 F3000 ; Move Z Axis up little to prevent scratching of Heat Bed
G1 X5 Y20 Z0.3 F5000.0 ; Move over to prevent blob squish
G92 E0
G92 E0
G1 F1500 E-6
;LAYER_COUNT:245
;LAYER:0
M117 Layer 1 of 245 Base
M107
M204 S500
M205 X8 Y8
G0 F7500 X56.47 Y86.6 Z0.2
;TYPE:SKIRT
G1 F1500 E0
G1 X56.984 Y86.282 E0.0191
G1 X57.331 Y86.086 E0.03169
G1 X57.529 Y85.979 E0.0388
G1 X57.808 Y85.833 E0.04875
G1 X57.933 Y85.77 E0.05317
G1 X58.554 Y85.481 E0.07482
G1 X58.902 Y85.332 E0.08678
G1 X59.549 Y85.079 E0.10873
G1 X59.822 Y84.982 E0.11788
G1 X60.331 Y84.815 E0.13481
G1 X60.477 Y84.771 E0.13963
G1 X61.13 Y84.596 E0.16099
G1 X61.627 Y84.479 E0.17712
G1 X62.609 Y84.294 E0.2087
G1 X62.878 Y84.256 E0.21728
G1 X63.424 Y84.193 E0.23465
G1 X63.755 Y84.163 E0.24515
G1 X64.413 Y84.123 E0.26598
G1 X65.003 Y84.105 E0.28463
G1 X65.338 Y84.1 E0.29521
G1 X184.299 Y84.1 E4.05404
G1 X185.299 Y84.113 E4.08564
G1 X185.807 Y84.132 E4.1017
G1 X186.055 Y84.147 E4.10955
G1 X186.668 Y84.201 E4.129
G1 X186.993 Y84.239 E4.13934
G1 X187.412 Y84.297 E4.1527
G1 X187.553 Y84.319 E4.15721
G1 X188.081 Y84.414 E4.17416
G1 X188.299 Y84.459 E4.1812
G1 X188.661 Y84.54 E4.19292
G1 X188.814 Y84.577 E4.19789
G1 X189.383 Y84.731 E4.21652
G1 X189.707 Y84.828 E4.2272
G1 X190.055 Y84.939 E4.23874
G1 X190.183 Y84.982 E4.24301
G1 X190.742 Y85.187 E4.26182
G1 X190.971 Y85.278 E4.26961
G1 X191.314 Y85.42 E4.28134
G1 X191.433 Y85.472 E4.28544
G1 X191.96 Y85.72 E4.30385
G1 X192.265 Y85.873 E4.31463
G1 X192.897 Y86.216 E4.33735
G1 X193.175 Y86.379 E4.34753
G1 X193.686 Y86.698 E4.36657
G1 X193.843 Y86.802 E4.37252
G1 X194.334 Y87.147 E4.39148
G1 X194.627 Y87.365 E4.40302
G1 X194.911 Y87.583 E4.41433
G1 X195.009 Y87.661 E4.41829
G1 X195.515 Y88.089 E4.43923
G1 X195.674 Y88.232 E4.44598
G1 X196.014 Y88.55 E4.46069
G1 X196.435 Y88.972 E4.47953
G1 X196.639 Y89.188 E4.48892
G1 X196.88 Y89.451 E4.50019
G1 X196.98 Y89.564 E4.50495
G1 X197.371 Y90.032 E4.52422
G1 X197.522 Y90.223 E4.53192
G1 X197.786 Y90.569 E4.54567
G1 X198.182 Y91.132 E4.56742
G1 X198.354 Y91.394 E4.57732
G1 X198.582 Y91.757 E4.59087
G1 X198.89 Y92.291 E4.61034
G1 X199.147 Y92.77 E4.62752
G1 X199.199 Y92.871 E4.63111
G1 X199.52 Y93.551 E4.65487
G1 X199.639 Y93.827 E4.66437
G1 X199.779 Y94.167 E4.67598
G1 X199.828 Y94.292 E4.68023
G1 X200.026 Y94.84 E4.69864
G1 X200.115 Y95.108 E4.70756
G1 X200.218 Y95.433 E4.71833
G1 X200.249 Y95.537 E4.72176
G1 X200.406 Y96.124 E4.74096
G1 X200.491 Y96.48 E4.75252
G1 X200.578 Y96.878 E4.7654
G1 X200.6 Y96.988 E4.76894
G1 X200.693 Y97.52 E4.78601
G1 X200.726 Y97.741 E4.79307
G1 X200.792 Y98.271 E4.80994
G1 X200.815 Y98.501 E4.81725
G1 X200.868 Y99.37 E4.84476
G1 X200.898 Y100.829 E4.89087
G1 X200.9 Y101.055 E4.89801
G1 X200.899 Y149.415 E6.42604
G1 X200.887 Y150.29 E6.45369
G1 X200.869 Y150.779 E6.46916
G1 X200.856 Y151.002 E6.47621
G1 X200.8 Y151.644 E6.49658
G1 X200.756 Y152.019 E6.50851
G1 X200.701 Y152.425 E6.52145
G1 X200.594 Y153.04 E6.54118
G1 X200.545 Y153.28 E6.54892
G1 X200.448 Y153.708 E6.56278
G1 X200.417 Y153.834 E6.56688
G1 X200.283 Y154.33 E6.58312
G1 X200.174 Y154.698 E6.59524
G1 X199.955 Y155.358 E6.61722
G1 X199.859 Y155.62 E6.62603
G1 X199.62 Y156.22 E6.64644
G1 X199.537 Y156.411 E6.65302
G1 X199.293 Y156.934 E6.67125
G1 X199.139 Y157.243 E6.68216
G1 X198.931 Y157.641 E6.69635
G1 X198.619 Y158.181 E6.71606
G1 X198.444 Y158.465 E6.7266
G1 X198.234 Y158.793 E6.7389
G1 X197.848 Y159.344 E6.76016
G1 X197.629 Y159.637 E6.77172
G1 X197.342 Y160.005 E6.78647
G1 X196.925 Y160.498 E6.80687
G1 X196.786 Y160.653 E6.81345
G1 X196.581 Y160.876 E6.82302
G1 X196.472 Y160.991 E6.82802
G1 X196.029 Y161.432 E6.84778
G1 X195.772 Y161.674 E6.85893
G1 X195.28 Y162.111 E6.87972
G1 X195.026 Y162.323 E6.89018
G1 X194.486 Y162.746 E6.91185
G1 X194.377 Y162.826 E6.91612
G1 X193.919 Y163.144 E6.93374
G1 X193.541 Y163.393 E6.94804
G1 X193.012 Y163.721 E6.96771
G1 X192.677 Y163.91 E6.97986
G1 X192.481 Y164.016 E6.9869
G1 X192.095 Y164.216 E7.00064
G1 X191.446 Y164.519 E7.02327
G1 X191.098 Y164.668 E7.03523
G1 X190.451 Y164.921 E7.05718
G1 X190.178 Y165.018 E7.06634
G1 X189.669 Y165.185 E7.08326
G1 X189.523 Y165.229 E7.08808
G1 X188.87 Y165.404 E7.10944
G1 X188.373 Y165.521 E7.12558
G1 X187.391 Y165.706 E7.15715
G1 X187.122 Y165.744 E7.16573
G1 X186.576 Y165.807 E7.1831
G1 X186.245 Y165.837 E7.1936
G1 X185.587 Y165.877 E7.21443
G1 X184.997 Y165.895 E7.23308
G1 X184.662 Y165.9 E7.24367
G1 X65.544 Y165.899 E11.00746
G1 X64.701 Y165.887 E11.03409
G1 X64.199 Y165.868 E11.04997
G1 X63.949 Y165.853 E11.05788
G1 X63.327 Y165.798 E11.07761
G1 X63.003 Y165.76 E11.08792
G1 X62.588 Y165.703 E11.10115
G1 X62.447 Y165.681 E11.10566
G1 X61.919 Y165.586 E11.12262
G1 X61.701 Y165.541 E11.12965
G1 X61.339 Y165.46 E11.14137
G1 X61.186 Y165.423 E11.14634
G1 X60.617 Y165.269 E11.16497
G1 X60.293 Y165.172 E11.17566
G1 X59.945 Y165.061 E11.1872
G1 X59.817 Y165.018 E11.19146
G1 X59.258 Y164.813 E11.21028
G1 X59.029 Y164.722 E11.21806
G1 X58.639 Y164.559 E11.23142
G1 X58.517 Y164.505 E11.23563
G1 X58.05 Y164.285 E11.25195
G1 X57.748 Y164.134 E11.26261
G1 X57.118 Y163.793 E11.28525
G1 X56.839 Y163.63 E11.29546
G1 X56.3 Y163.294 E11.31553
G1 X56.145 Y163.191 E11.32141
G1 X55.662 Y162.851 E11.34007
G1 X55.368 Y162.632 E11.35166
G1 X55.078 Y162.408 E11.36323
G1 X54.979 Y162.329 E11.36724
G1 X54.487 Y161.912 E11.38761
G1 X54.329 Y161.77 E11.39433
G1 X54.082 Y161.541 E11.40497
G1 X53.969 Y161.433 E11.40991
G1 X53.576 Y161.038 E11.42751
G1 X53.333 Y160.781 E11.43869
G1 X52.974 Y160.383 E11.45563
G1 X52.896 Y160.292 E11.45941
G1 X52.629 Y159.967 E11.4727
G1 X52.472 Y159.769 E11.48069
G1 X52.238 Y159.463 E11.49286
G1 X52.165 Y159.364 E11.49674
G1 X51.84 Y158.899 E11.51467
G1 X51.659 Y158.625 E11.52505
G1 X51.414 Y158.237 E11.53955
G1 X51.361 Y158.149 E11.54279
G1 X51.102 Y157.695 E11.55931
G1 X50.944 Y157.402 E11.56983
G1 X50.763 Y157.052 E11.58228
G1 X50.479 Y156.445 E11.60345
G1 X50.36 Y156.169 E11.61295
G1 X50.205 Y155.792 E11.62583
G1 X49.954 Y155.104 E11.64897
G1 X49.862 Y154.822 E11.65834
G1 X49.737 Y154.414 E11.67182
G1 X49.581 Y153.826 E11.69104
G1 X49.507 Y153.513 E11.70121
G1 X49.412 Y153.075 E11.71537
G1 X49.304 Y152.457 E11.73519
G1 X49.267 Y152.204 E11.74327
G1 X49.209 Y151.749 E11.75776
G1 X49.134 Y150.682 E11.79156
G1 X49.102 Y149.153 E11.83988
G1 X49.1 Y148.923 E11.84715
G1 X49.101 Y100.548 E13.37566
G1 X49.113 Y99.709 E13.40218
G1 X49.131 Y99.228 E13.41738
G1 X49.145 Y98.987 E13.42501
G1 X49.202 Y98.338 E13.4456
G1 X49.247 Y97.956 E13.45775
G1 X49.313 Y97.482 E13.47287
G1 X49.331 Y97.371 E13.47643
G1 X49.403 Y96.975 E13.48914
G1 X49.443 Y96.775 E13.49559
G1 X49.55 Y96.296 E13.5111
G1 X49.589 Y96.138 E13.51624
G1 X49.725 Y95.636 E13.53267
G1 X49.828 Y95.29 E13.54408
G1 X49.946 Y94.919 E13.55638
G1 X49.981 Y94.815 E13.55985
G1 X50.189 Y94.248 E13.57893
G1 X50.266 Y94.055 E13.5855
G1 X50.451 Y93.617 E13.60052
G1 X50.714 Y93.051 E13.62024
G1 X50.875 Y92.73 E13.63159
G1 X51.09 Y92.322 E13.64616
G1 X51.384 Y91.814 E13.6647
G1 X51.535 Y91.568 E13.67382
G1 X51.757 Y91.22 E13.68687
G1 X51.805 Y91.148 E13.6896
G1 X52.152 Y90.659 E13.70855
G1 X52.396 Y90.333 E13.72141
G1 X52.875 Y89.737 E13.74557
G1 X53.083 Y89.496 E13.75563
G1 X53.448 Y89.093 E13.77281
G1 X53.55 Y88.986 E13.77748
G1 X53.971 Y88.568 E13.79623
G1 X54.228 Y88.326 E13.80738
G1 X54.72 Y87.889 E13.82818
G1 X54.974 Y87.677 E13.83863
G1 X55.475 Y87.283 E13.85877
G1 X55.583 Y87.203 E13.86301
G1 X56.091 Y86.849 E13.88258
G1 X56.47 Y86.6 E13.89691
G0 F7500 X56.69 Y86.934
G1 F1500 X57.187 Y86.626 E13.91538
G1 X57.522 Y86.438 E13.92752
G1 X57.72 Y86.331 E13.93463
G1 X57.988 Y86.19 E13.9442
G1 X58.113 Y86.127 E13.94862
G1 X58.712 Y85.849 E13.96949
G1 X59.06 Y85.7 E13.98145
G1 X59.683 Y85.456 E14.00259
G1 X59.956 Y85.359 E14.01175
G1 X60.446 Y85.198 E14.02804
G1 X60.592 Y85.154 E14.03286
G1 X61.222 Y84.985 E14.05347
G1 X61.719 Y84.868 E14.0696
G1 X62.665 Y84.69 E14.10002
G1 X62.934 Y84.652 E14.1086
G1 X63.46 Y84.591 E14.12533
G1 X63.791 Y84.561 E14.13584
G1 X64.425 Y84.523 E14.1559
G1 X65.015 Y84.505 E14.17456
G1 X65.338 Y84.5 E14.18476
G1 X184.299 Y84.5 E17.94359
G1 X185.294 Y84.513 E17.97503
G1 X185.783 Y84.531 E17.99049
G1 X186.031 Y84.546 E17.99834
G1 X186.622 Y84.599 E18.01709
G1 X186.947 Y84.637 E18.02743
G1 X187.35 Y84.692 E18.04028
G1 X187.491 Y84.714 E18.04479
G1 X188 Y84.806 E18.06113
G1 X188.218 Y84.851 E18.06817
G1 X188.567 Y84.929 E18.07947
G1 X188.72 Y84.966 E18.08444
G1 X189.268 Y85.114 E18.10238
G1 X189.592 Y85.211 E18.11306
G1 X189.928 Y85.318 E18.1242
G1 X190.056 Y85.361 E18.12847
G1 X190.594 Y85.558 E18.14657
G1 X190.823 Y85.649 E18.15436
G1 X191.153 Y85.787 E18.16566
G1 X191.272 Y85.839 E18.16977
G1 X191.781 Y86.077 E18.18752
G1 X192.086 Y86.23 E18.1983
G1 X192.694 Y86.561 E18.22018
G1 X192.972 Y86.724 E18.23036
G1 X193.465 Y87.031 E18.24871
G1 X193.622 Y87.135 E18.25466
G1 X194.095 Y87.468 E18.27294
G1 X194.388 Y87.686 E18.28448
G1 X194.662 Y87.896 E18.29538
G1 X194.76 Y87.974 E18.29934
G1 X195.247 Y88.387 E18.31952
G1 X195.619 Y88.726 E18.33542
G1 X195.739 Y88.84 E18.34065
G1 X196.144 Y89.247 E18.35879
G1 X196.348 Y89.463 E18.36818
G1 X196.58 Y89.716 E18.37903
G1 X196.68 Y89.829 E18.38379
G1 X197.057 Y90.28 E18.40237
G1 X197.208 Y90.471 E18.41006
G1 X197.466 Y90.809 E18.4235
G1 X197.847 Y91.352 E18.44446
G1 X198.019 Y91.614 E18.45436
G1 X198.242 Y91.967 E18.46755
G1 X198.539 Y92.481 E18.48631
G1 X198.692 Y92.764 E18.49647
G1 X198.843 Y93.054 E18.50681
G1 X199.153 Y93.709 E18.5297
G1 X199.272 Y93.985 E18.5392
G1 X199.407 Y94.313 E18.55041
G1 X199.456 Y94.438 E18.55465
G1 X199.647 Y94.966 E18.57239
G1 X199.736 Y95.234 E18.58131
G1 X199.865 Y95.651 E18.5951
G1 X200.017 Y96.217 E18.61362
G1 X200.102 Y96.573 E18.62519
G1 X200.186 Y96.956 E18.63758
G1 X200.208 Y97.066 E18.64112
G1 X200.298 Y97.58 E18.65761
G1 X200.331 Y97.801 E18.66467
G1 X200.394 Y98.311 E18.68091
G1 X200.417 Y98.541 E18.68821
G1 X200.468 Y99.378 E18.71471
G1 X200.498 Y100.837 E18.76082
G1 X200.5 Y101.055 E18.7677
G1 X200.499 Y149.409 E20.29555
G1 X200.487 Y150.284 E20.3232
G1 X200.47 Y150.756 E20.33813
G1 X200.457 Y150.979 E20.34518
G1 X200.403 Y151.597 E20.36478
G1 X200.359 Y151.972 E20.37672
G1 X200.305 Y152.368 E20.38934
G1 X200.202 Y152.96 E20.40833
G1 X200.153 Y153.2 E20.41607
G1 X200.06 Y153.612 E20.42942
G1 X200.029 Y153.738 E20.43352
G1 X199.9 Y154.216 E20.44916
G1 X199.791 Y154.584 E20.46129
G1 X199.58 Y155.221 E20.48249
G1 X199.484 Y155.483 E20.49131
G1 X199.253 Y156.061 E20.51097
G1 X199.17 Y156.252 E20.51755
G1 X198.935 Y156.755 E20.5351
G1 X198.781 Y157.064 E20.546
G1 X198.579 Y157.45 E20.55977
G1 X198.278 Y157.971 E20.57878
G1 X198.103 Y158.255 E20.58932
G1 X197.899 Y158.574 E20.60129
G1 X197.527 Y159.104 E20.62175
G1 X197.308 Y159.397 E20.63331
G1 X197.111 Y159.653 E20.64351
G1 X197.029 Y159.756 E20.64767
G1 X196.628 Y160.231 E20.66731
G1 X196.489 Y160.386 E20.67389
G1 X196.181 Y160.716 E20.68815
G1 X195.755 Y161.141 E20.70717
G1 X195.498 Y161.383 E20.71832
G1 X195.023 Y161.804 E20.73838
G1 X194.769 Y162.016 E20.74883
G1 X194.249 Y162.423 E20.7697
G1 X194.14 Y162.503 E20.77397
G1 X193.699 Y162.81 E20.79095
G1 X193.321 Y163.059 E20.80525
G1 X192.81 Y163.376 E20.82425
G1 X192.486 Y163.558 E20.83599
G1 X192.29 Y163.664 E20.84303
G1 X191.914 Y163.859 E20.85642
G1 X191.288 Y164.151 E20.87824
G1 X190.94 Y164.3 E20.8902
G1 X190.317 Y164.544 E20.91134
G1 X190.044 Y164.641 E20.9205
G1 X189.554 Y164.802 E20.93679
G1 X189.408 Y164.846 E20.94161
G1 X188.778 Y165.015 E20.96222
G1 X188.281 Y165.132 E20.97836
G1 X187.335 Y165.31 E21.00877
G1 X187.066 Y165.348 E21.01736
G1 X186.54 Y165.409 E21.03409
G1 X186.209 Y165.439 E21.04459
G1 X185.575 Y165.477 E21.06466
G1 X184.985 Y165.495 E21.08331
G1 X184.662 Y165.5 E21.09351
G1 X65.55 Y165.499 E24.85711
G1 X64.707 Y165.487 E24.88375
G1 X64.223 Y165.469 E24.89905
G1 X63.973 Y165.454 E24.90697
G1 X63.373 Y165.401 E24.926
G1 X63.049 Y165.363 E24.93631
G1 X62.65 Y165.308 E24.94903
G1 X62.509 Y165.286 E24.95354
G1 X62 Y165.194 E24.96989
G1 X61.782 Y165.149 E24.97692
G1 X61.433 Y165.071 E24.98822
G1 X61.28 Y165.034 E24.99319
G1 X60.732 Y164.886 E25.01113
G1 X60.408 Y164.789 E25.02182
G1 X60.072 Y164.682 E25.03296
G1 X59.944 Y164.639 E25.03722
G1 X59.406 Y164.442 E25.05533
G1 X59.177 Y164.351 E25.06311
G1 X58.801 Y164.193 E25.076
G1 X58.679 Y164.139 E25.08022
G1 X58.229 Y163.927 E25.09593
G1 X57.927 Y163.776 E25.1066
G1 X57.32 Y163.447 E25.12842
G1 X57.041 Y163.284 E25.13863
G1 X56.521 Y162.96 E25.15799
G1 X56.366 Y162.857 E25.16387
G1 X55.901 Y162.53 E25.18183
G1 X55.607 Y162.311 E25.19341
G1 X55.327 Y162.095 E25.20459
G1 X55.228 Y162.016 E25.20859
G1 X54.754 Y161.615 E25.22821
G1 X54.596 Y161.473 E25.23492
G1 X54.358 Y161.252 E25.24518
G1 X54.245 Y161.144 E25.25012
G1 X53.867 Y160.764 E25.26705
G1 X53.624 Y160.507 E25.27823
G1 X53.278 Y160.122 E25.29459
G1 X53.2 Y160.031 E25.29837
G1 X52.942 Y159.719 E25.31117
G1 X52.785 Y159.521 E25.31915
G1 X52.56 Y159.226 E25.33087
G1 X52.487 Y159.127 E25.33476
G1 X52.174 Y158.679 E25.35203
G1 X51.993 Y158.405 E25.3624
G1 X51.757 Y158.031 E25.37638
G1 X51.704 Y157.943 E25.37962
G1 X51.454 Y157.505 E25.39556
G1 X51.296 Y157.212 E25.40608
G1 X51.12 Y156.872 E25.41817
G1 X50.846 Y156.287 E25.43858
G1 X50.727 Y156.011 E25.44808
G1 X50.576 Y155.643 E25.46065
G1 X50.335 Y154.98 E25.48294
G1 X50.243 Y154.698 E25.49231
G1 X50.121 Y154.3 E25.50547
G1 X49.97 Y153.734 E25.52398
G1 X49.896 Y153.421 E25.53414
G1 X49.804 Y152.995 E25.54791
G1 X49.7 Y152.399 E25.56702
G1 X49.663 Y152.146 E25.5751
G1 X49.625 Y151.862 E25.58416
G1 X49.606 Y151.702 E25.58925
G1 X49.534 Y150.674 E25.62181
G1 X49.502 Y149.145 E25.67013
G1 X49.5 Y148.923 E25.67715
G1 X49.501 Y100.553 E27.2055
G1 X49.513 Y99.714 E27.23201
G1 X49.53 Y99.251 E27.24665
G1 X49.544 Y99.01 E27.25428
G1 X49.599 Y98.385 E27.2741
G1 X49.644 Y98.003 E27.28626
G1 X49.708 Y97.546 E27.30084
G1 X49.726 Y97.435 E27.30439
G1 X49.795 Y97.053 E27.31666
G1 X49.835 Y96.853 E27.3231
G1 X49.938 Y96.392 E27.33803
G1 X49.977 Y96.234 E27.34317
G1 X50.109 Y95.75 E27.35902
G1 X50.212 Y95.404 E27.37043
G1 X50.325 Y95.047 E27.38226
G1 X50.36 Y94.943 E27.38573
G1 X50.561 Y94.396 E27.40414
G1 X50.638 Y94.203 E27.41071
G1 X50.754 Y93.924 E27.42025
G1 X50.818 Y93.776 E27.42535
G1 X51.072 Y93.231 E27.44435
G1 X51.233 Y92.91 E27.45569
G1 X51.442 Y92.513 E27.46987
G1 X51.725 Y92.023 E27.48775
G1 X51.876 Y91.777 E27.49687
G1 X52.138 Y91.37 E27.51216
G1 X52.472 Y90.898 E27.53043
G1 X52.716 Y90.572 E27.5433
G1 X53.177 Y89.998 E27.56656
G1 X53.385 Y89.757 E27.57662
G1 X53.738 Y89.369 E27.5932
G1 X53.84 Y89.262 E27.59787
G1 X54.245 Y88.859 E27.61592
G1 X54.502 Y88.617 E27.62707
G1 X54.977 Y88.196 E27.64713
G1 X55.231 Y87.984 E27.65758
G1 X55.714 Y87.604 E27.677
G1 X55.822 Y87.524 E27.68125
G1 X56.311 Y87.183 E27.70008
G1 X56.69 Y86.934 E27.71441
G0 F7500 X56.909 Y87.268
G1 F1500 X57.389 Y86.971 E27.73225
G1 X57.712 Y86.789 E27.74396
G1 X57.91 Y86.682 E27.75107
G1 X58.168 Y86.547 E27.76027
G1 X58.293 Y86.484 E27.7647
G1 X58.869 Y86.216 E27.78477
G1 X59.217 Y86.067 E27.79673
G1 X59.817 Y85.833 E27.81708
G1 X60.09 Y85.736 E27.82624
G1 X60.562 Y85.581 E27.84193
G1 X60.708 Y85.537 E27.84675
G1 X61.314 Y85.374 E27.86658
G1 X61.811 Y85.257 E27.88271
G1 X62.721 Y85.086 E27.91197
G1 X62.99 Y85.048 E27.92055
G1 X63.496 Y84.99 E27.93665
G1 X63.827 Y84.96 E27.94715
G1 X64.437 Y84.923 E27.96646
G1 X65.027 Y84.905 E27.98511
G1 X65.338 Y84.9 E27.99494
