;FLAVOR:Marlin
;TIME:2131
;Filament used: 0.765341m
;Layer height: 0.12
;MINX:74
;MINY:108
;MINZ:0.2
;MAXX:175.999
;MAXY:142
;MAXZ:10.04
;POSTPROCESSED
;Generated with Cura_SteamEngine 4.12.1
M140 S60
M105
M190 S60
M104 S200
M105
M109 S200
M82 ;absolute extrusion mode
; Ender 3 Custom Start G-code
G92 E0 ; Reset Extruder
G28 ; Home all axes
G1 Z2.0 F3000 ; Move Z Axis up little to prevent scratching of Heat Bed
G1 X0.1 Y20 Z0.3 F5000.0 ; Move to start position
G1 X0.1 Y200.0 Z0.3 F1500.0 E15 ; Draw the first line
G1 X0.4 Y200.0 Z0.3 F5000.0 ; Move to side a little
G1 X0.4 Y20 Z0.3 F1500.0 E30 ; Draw the second line
G92 E0 ; Reset Extruder
G1 Z2.0 F3000 ; Move Z Axis up little to prevent scratching of Heat Bed
G1 X5 Y20 Z0.3 F5000.0 ; Move over to prevent blob squish
G92 E0
G92 E0
G1 F1500 E-6
;LAYER_COUNT:83
;LAYER:0
M117 Layer 1 of 83 PCB Mount Support
M107
M204 S500
M205 X8 Y8
G0 F7500 X78.956 Y110.81 Z0.2
;TYPE:SKIRT
G1 F1500 E0
G1 X80.017 Y110.055 E0.04115
G1 X80.231 Y109.921 E0.04912
G1 X81.385 Y109.291 E0.09067
G1 X81.521 Y109.227 E0.09542
G1 X82.78 Y108.727 E0.13822
G1 X83.131 Y108.612 E0.14989
G1 X84.399 Y108.279 E0.19131
G1 X84.559 Y108.247 E0.19647
G1 X85.823 Y108.069 E0.2368
G1 X86.044 Y108.051 E0.24381
G1 X86.756 Y108.016 E0.26633
G1 X87.67 Y108.001 E0.29522
G1 X162.301 Y108 E2.65334
G1 X162.898 Y108.007 E2.67221
G1 X163.292 Y108.019 E2.68466
G1 X163.801 Y108.044 E2.70076
G1 X164.995 Y108.169 E2.7387
G1 X165.114 Y108.188 E2.7425
G1 X166.033 Y108.375 E2.77214
G1 X166.53 Y108.511 E2.78842
G1 X166.878 Y108.615 E2.79989
G1 X168.061 Y109.043 E2.83965
G1 X168.208 Y109.106 E2.8447
G1 X169.428 Y109.722 E2.88788
G1 X169.705 Y109.884 E2.89802
G1 X170.494 Y110.391 E2.92766
G1 X170.909 Y110.699 E2.94398
G1 X171.076 Y110.829 E2.95067
G1 X171.791 Y111.436 E2.98031
G1 X172.153 Y111.787 E2.99624
G1 X172.29 Y111.926 E3.00241
G1 X173.021 Y112.745 E3.03709
G1 X173.183 Y112.946 E3.04525
G1 X173.912 Y113.966 E3.08486
G1 X174.031 Y114.154 E3.09189
G1 X174.684 Y115.341 E3.1347
G1 X174.794 Y115.574 E3.14284
G1 X175.302 Y116.851 E3.18627
G1 X175.389 Y117.117 E3.19511
G1 X175.642 Y118.02 E3.22474
G1 X175.762 Y118.597 E3.24336
G1 X175.803 Y118.826 E3.25071
G1 X175.941 Y119.905 E3.28508
G1 X175.949 Y120.007 E3.28832
G1 X175.981 Y120.683 E3.3097
G1 X175.999 Y121.819 E3.3456
G1 X175.999 Y126.437 E3.49152
G1 X175.987 Y127.271 E3.51787
G1 X175.968 Y127.776 E3.53384
G1 X175.954 Y128.008 E3.54118
G1 X175.897 Y128.644 E3.56136
G1 X175.87 Y128.871 E3.56858
G1 X175.82 Y129.243 E3.58044
G1 X175.708 Y129.874 E3.60069
G1 X175.647 Y130.169 E3.61021
G1 X175.537 Y130.648 E3.62574
G1 X175.393 Y131.176 E3.64303
G1 X175.318 Y131.426 E3.65128
G1 X175.193 Y131.819 E3.66431
G1 X174.968 Y132.432 E3.68494
G1 X174.865 Y132.689 E3.69369
G1 X174.704 Y133.07 E3.70676
G1 X174.449 Y133.611 E3.72566
G1 X174.321 Y133.865 E3.73464
G1 X174.095 Y134.29 E3.74985
G1 X173.822 Y134.759 E3.767
G1 X173.698 Y134.96 E3.77446
G1 X173.496 Y135.276 E3.78631
G1 X173.121 Y135.814 E3.80703
G1 X172.96 Y136.031 E3.81557
G1 X172.723 Y136.34 E3.82788
G1 X172.27 Y136.878 E3.8501
G1 X172.068 Y137.103 E3.85965
G1 X171.743 Y137.45 E3.87467
G1 X171.602 Y137.594 E3.88104
G1 X171.081 Y138.092 E3.90382
G1 X170.966 Y138.195 E3.90869
G1 X170.455 Y138.626 E3.92982
G1 X170.143 Y138.873 E3.94239
G1 X169.282 Y139.489 E3.97584
G1 X168.963 Y139.695 E3.98784
G1 X168.099 Y140.199 E4.01944
G1 X167.824 Y140.343 E4.02925
G1 X167.077 Y140.699 E4.0554
G1 X166.815 Y140.812 E4.06441
G1 X166.456 Y140.959 E4.07667
G1 X165.849 Y141.18 E4.09708
G1 X165.543 Y141.281 E4.10726
G1 X164.793 Y141.499 E4.13194
G1 X164.544 Y141.562 E4.14006
G1 X164.02 Y141.681 E4.15704
G1 X163.896 Y141.706 E4.16103
G1 X163.311 Y141.808 E4.1798
G1 X163.037 Y141.848 E4.18855
G1 X162.632 Y141.899 E4.20145
G1 X161.628 Y141.967 E4.23324
G1 X160.162 Y141.998 E4.27957
G1 X159.929 Y142 E4.28694
G1 X89.529 Y141.998 E6.51137
G1 X88.707 Y141.986 E6.53735
G1 X88.248 Y141.97 E6.55186
G1 X88.053 Y141.959 E6.55803
G1 X87.393 Y141.901 E6.57897
G1 X87.137 Y141.871 E6.58711
G1 X86.655 Y141.804 E6.60249
G1 X86.126 Y141.708 E6.61947
G1 X85.831 Y141.647 E6.62899
G1 X85.357 Y141.538 E6.64436
G1 X84.838 Y141.397 E6.66135
G1 X84.59 Y141.323 E6.66953
G1 X84.178 Y141.192 E6.68319
G1 X83.558 Y140.964 E6.70406
G1 X83.304 Y140.862 E6.71271
G1 X82.912 Y140.696 E6.72616
G1 X82.386 Y140.448 E6.74454
G1 X82.134 Y140.321 E6.75346
G1 X81.704 Y140.092 E6.76885
G1 X81.23 Y139.816 E6.78618
G1 X81.029 Y139.692 E6.79364
G1 X80.67 Y139.461 E6.80713
G1 X80.113 Y139.067 E6.82869
G1 X79.844 Y138.864 E6.83934
G1 X79.113 Y138.262 E6.86926
G1 X78.884 Y138.056 E6.87899
G1 X78.323 Y137.513 E6.90366
G1 X78.08 Y137.261 E6.91472
G1 X77.376 Y136.457 E6.94849
G1 X77.132 Y136.149 E6.9609
G1 X76.531 Y135.313 E6.99344
G1 X76.349 Y135.033 E7.00399
G1 X75.963 Y134.392 E7.02763
G1 X75.851 Y134.191 E7.0349
G1 X75.638 Y133.79 E7.04925
G1 X75.579 Y133.673 E7.05339
G1 X75.273 Y133.011 E7.07643
G1 X75.137 Y132.69 E7.08745
G1 X74.816 Y131.836 E7.11628
G1 X74.716 Y131.532 E7.12639
G1 X74.501 Y130.793 E7.15071
G1 X74.438 Y130.544 E7.15882
G1 X74.319 Y130.02 E7.1758
G1 X74.294 Y129.896 E7.1798
G1 X74.185 Y129.259 E7.20022
G1 X74.139 Y128.933 E7.21062
G1 X74.033 Y127.627 E7.25202
G1 X74.002 Y126.15 E7.2987
G1 X74 Y125.919 E7.306
G1 X74.001 Y121.532 E7.44462
G1 X74.008 Y121.071 E7.45918
G1 X74.019 Y120.72 E7.47028
G1 X74.043 Y120.211 E7.48638
G1 X74.181 Y118.921 E7.52737
G1 X74.199 Y118.813 E7.53083
G1 X74.486 Y117.55 E7.57176
G1 X74.577 Y117.237 E7.58206
G1 X75.044 Y115.941 E7.62558
G1 X75.137 Y115.726 E7.63299
G1 X75.752 Y114.516 E7.67587
G1 X75.872 Y114.312 E7.68335
G1 X76.569 Y113.267 E7.72304
G1 X76.667 Y113.137 E7.72819
G1 X77.566 Y112.089 E7.77181
G1 X77.816 Y111.832 E7.78314
G1 X78.802 Y110.934 E7.82528
G1 X78.956 Y110.81 E7.83153
G0 F7500 X79.207 Y111.122
G1 F1500 X80.229 Y110.394 E7.87118
G1 X80.443 Y110.26 E7.87915
G1 X81.556 Y109.653 E7.91921
G1 X81.692 Y109.589 E7.92396
G1 X82.905 Y109.107 E7.9652
G1 X83.256 Y108.992 E7.97687
G1 X84.477 Y108.671 E8.01677
G1 X84.637 Y108.639 E8.02192
G1 X85.856 Y108.468 E8.06082
G1 X86.077 Y108.45 E8.06782
G1 X86.763 Y108.416 E8.08952
G1 X87.677 Y108.401 E8.11841
G1 X162.301 Y108.4 E10.47631
G1 X162.893 Y108.407 E10.49502
G1 X163.272 Y108.419 E10.507
G1 X163.781 Y108.444 E10.5231
G1 X164.932 Y108.564 E10.55967
G1 X165.051 Y108.583 E10.56348
G1 X165.953 Y108.767 E10.59256
G1 X166.415 Y108.894 E10.6077
G1 X166.763 Y108.998 E10.61918
G1 X167.904 Y109.411 E10.65752
G1 X168.051 Y109.474 E10.66257
G1 X169.226 Y110.067 E10.70416
G1 X169.503 Y110.229 E10.7143
G1 X170.277 Y110.728 E10.7434
G1 X170.663 Y111.015 E10.7586
G1 X170.83 Y111.145 E10.76528
G1 X171.531 Y111.741 E10.79436
G1 X171.868 Y112.068 E10.80919
G1 X172.005 Y112.207 E10.81536
G1 X172.709 Y112.996 E10.84877
G1 X172.871 Y113.197 E10.85693
G1 X173.575 Y114.18 E10.89513
G1 X173.694 Y114.368 E10.90216
G1 X174.322 Y115.512 E10.9434
G1 X174.432 Y115.745 E10.95154
G1 X174.922 Y116.975 E10.99337
G1 X175.009 Y117.241 E11.00222
G1 X175.257 Y118.127 E11.03129
G1 X175.368 Y118.668 E11.04874
G1 X175.409 Y118.897 E11.05609
G1 X175.543 Y119.936 E11.08919
G1 X175.551 Y120.038 E11.09242
G1 X175.582 Y120.689 E11.11302
G1 X175.598 Y121.643 E11.14316
G1 X175.6 Y126.277 E11.28959
G1 X175.587 Y127.266 E11.32084
G1 X175.569 Y127.751 E11.33617
G1 X175.555 Y127.983 E11.34352
G1 X175.5 Y128.597 E11.36299
G1 X175.473 Y128.824 E11.37022
G1 X175.424 Y129.185 E11.38173
G1 X175.316 Y129.793 E11.40124
G1 X175.255 Y130.088 E11.41076
G1 X175.149 Y130.553 E11.42583
G1 X175.01 Y131.061 E11.44247
G1 X174.935 Y131.311 E11.45072
G1 X174.813 Y131.692 E11.46336
G1 X174.596 Y132.283 E11.48325
G1 X174.493 Y132.54 E11.492
G1 X174.337 Y132.91 E11.50469
G1 X174.092 Y133.431 E11.52288
G1 X173.964 Y133.685 E11.53187
G1 X173.745 Y134.098 E11.54664
G1 X173.481 Y134.549 E11.56315
G1 X173.21 Y134.983 E11.57932
G1 X173.161 Y135.058 E11.58215
G1 X172.8 Y135.576 E11.6021
G1 X172.639 Y135.793 E11.61063
G1 X172.409 Y136.092 E11.62255
G1 X171.973 Y136.61 E11.64395
G1 X171.771 Y136.835 E11.6535
G1 X171.457 Y137.17 E11.66801
G1 X171.316 Y137.314 E11.67438
G1 X170.814 Y137.794 E11.69632
G1 X170.699 Y137.897 E11.7012
G1 X170.206 Y138.312 E11.72156
G1 X169.894 Y138.559 E11.73414
G1 X169.065 Y139.153 E11.76636
G1 X168.746 Y139.359 E11.77836
G1 X167.913 Y139.844 E11.80881
G1 X167.638 Y139.988 E11.81862
G1 X166.919 Y140.331 E11.84379
G1 X166.657 Y140.444 E11.85281
G1 X166.308 Y140.588 E11.86474
G1 X165.723 Y140.8 E11.8844
G1 X165.417 Y140.901 E11.89458
G1 X164.695 Y141.111 E11.91834
G1 X164.446 Y141.174 E11.92646
G1 X163.941 Y141.289 E11.94282
G1 X163.817 Y141.314 E11.94682
G1 X163.253 Y141.412 E11.96491
G1 X162.979 Y141.452 E11.97365
G1 X162.587 Y141.502 E11.98614
G1 X161.619 Y141.567 E12.0168
G1 X160.153 Y141.598 E12.06313
G1 X159.929 Y141.6 E12.07021
G1 X89.535 Y141.598 E14.29445
G1 X88.713 Y141.586 E14.32043
G1 X88.271 Y141.57 E14.3344
G1 X88.076 Y141.559 E14.34058
G1 X87.439 Y141.504 E14.36078
G1 X87.183 Y141.474 E14.36892
G1 X86.717 Y141.409 E14.38379
G1 X86.207 Y141.316 E14.40017
G1 X85.912 Y141.255 E14.40969
G1 X85.455 Y141.15 E14.4245
G1 X84.952 Y141.013 E14.44098
G1 X84.704 Y140.939 E14.44915
G1 X84.305 Y140.812 E14.46238
G1 X83.707 Y140.593 E14.48251
G1 X83.453 Y140.491 E14.49116
G1 X83.073 Y140.33 E14.5042
G1 X82.567 Y140.091 E14.52188
G1 X82.315 Y139.964 E14.53079
G1 X81.897 Y139.742 E14.54575
G1 X81.44 Y139.475 E14.56247
G1 X81.239 Y139.351 E14.56993
G1 X80.891 Y139.128 E14.58299
G1 X80.354 Y138.748 E14.60378
G1 X80.085 Y138.545 E14.61443
G1 X79.381 Y137.965 E14.64325
G1 X79.152 Y137.759 E14.65298
G1 X78.611 Y137.236 E14.67676
G1 X78.368 Y136.984 E14.68782
G1 X77.689 Y136.208 E14.7204
G1 X77.445 Y135.9 E14.73282
G1 X76.866 Y135.095 E14.76415
G1 X76.684 Y134.815 E14.7747
G1 X76.312 Y134.198 E14.79746
G1 X76.2 Y133.997 E14.80473
G1 X75.995 Y133.61 E14.81857
G1 X75.936 Y133.493 E14.82271
G1 X75.641 Y132.855 E14.84492
G1 X75.505 Y132.534 E14.85594
G1 X75.196 Y131.711 E14.88371
G1 X75.096 Y131.407 E14.89383
G1 X74.889 Y130.695 E14.91726
G1 X74.826 Y130.446 E14.92537
G1 X74.711 Y129.941 E14.94174
G1 X74.686 Y129.817 E14.94573
G1 X74.581 Y129.203 E14.96542
G1 X74.535 Y128.877 E14.97582
G1 X74.433 Y127.618 E15.01573
G1 X74.402 Y126.141 E15.06241
G1 X74.4 Y125.919 E15.06942
G1 X74.401 Y121.538 E15.20785
G1 X74.408 Y121.077 E15.22242
G1 X74.419 Y120.739 E15.2331
G1 X74.443 Y120.23 E15.2492
G1 X74.575 Y118.986 E15.28873
G1 X74.593 Y118.878 E15.29219
G1 X74.87 Y117.662 E15.3316
G1 X74.961 Y117.349 E15.3419
G1 X75.411 Y116.1 E15.38385
G1 X75.504 Y115.885 E15.39125
G1 X76.096 Y114.719 E15.43257
G1 X76.216 Y114.515 E15.44004
G1 X76.889 Y113.508 E15.47831
G1 X76.987 Y113.378 E15.48346
G1 X77.853 Y112.368 E15.5255
G1 X78.103 Y112.111 E15.53682
G1 X79.053 Y111.246 E15.57742
G1 X79.207 Y111.122 E15.58367
G0 F7500 X79.458 Y111.433
G1 F1500 X80.442 Y110.733 E15.62182
G1 X80.656 Y110.599 E15.6298
G1 X81.726 Y110.015 E15.66832
G1 X81.862 Y109.951 E15.67307
G1 X83.029 Y109.487 E15.71275
G1 X83.38 Y109.372 E15.72442
G1 X84.556 Y109.063 E15.76284
G1 X84.716 Y109.031 E15.768
G1 X85.888 Y108.867 E15.80539
G1 X86.109 Y108.849 E15.81239
G1 X86.77 Y108.816 E15.83331
G1 X87.684 Y108.801 E15.86219
G1 X162.301 Y108.8 E18.21987
G1 X162.888 Y108.807 E18.23842
G1 X163.252 Y108.818 E18.24993
G1 X163.761 Y108.843 E18.26603
G1 X164.869 Y108.959 E18.30123
G1 X164.988 Y108.978 E18.30504
G1 X166.301 Y109.277 E18.34759
G1 X166.649 Y109.381 E18.35906
G1 X167.746 Y109.779 E18.39594
G1 X167.893 Y109.842 E18.40099
G1 X169.024 Y110.412 E18.44101
G1 X169.301 Y110.574 E18.45115
G1 X170.418 Y111.33 E18.49377
G1 X170.585 Y111.46 E18.50045
G1 X171.584 Y112.349 E18.54271
G1 X171.721 Y112.488 E18.54887
G1 X172.398 Y113.247 E18.58101
G1 X172.56 Y113.448 E18.58917
G1 X173.237 Y114.394 E18.62592
G1 X173.356 Y114.582 E18.63295
G1 X173.961 Y115.682 E18.67262
G1 X174.071 Y115.915 E18.68076
G1 X174.542 Y117.099 E18.72103
G1 X174.629 Y117.365 E18.72987
G1 X174.871 Y118.235 E18.7584
G1 X174.974 Y118.738 E18.77462
G1 X175.015 Y118.967 E18.78198
G1 X175.144 Y119.967 E18.81383
G1 X175.152 Y120.069 E18.81707
G1 X175.182 Y120.696 E18.8369
G1 X175.198 Y121.65 E18.86705
G1 X175.2 Y126.277 E19.01325
G1 X175.187 Y127.26 E19.04431
G1 X175.169 Y127.727 E19.05908
G1 X175.155 Y127.959 E19.06642
G1 X175.103 Y128.55 E19.08517
G1 X175.076 Y128.777 E19.09239
G1 X175.028 Y129.127 E19.10355
G1 X174.925 Y129.712 E19.12232
G1 X174.864 Y130.007 E19.13184
G1 X174.76 Y130.457 E19.14643
G1 X174.627 Y130.946 E19.16245
G1 X174.552 Y131.196 E19.17069
G1 X174.434 Y131.566 E19.18296
G1 X174.225 Y132.135 E19.20212
G1 X174.122 Y132.392 E19.21087
G1 X173.971 Y132.749 E19.22311
G1 X173.735 Y133.251 E19.24064
G1 X173.607 Y133.505 E19.24963
G1 X173.395 Y133.905 E19.26393
G1 X173.141 Y134.339 E19.27982
G1 X173.017 Y134.54 E19.28728
G1 X172.826 Y134.839 E19.29849
G1 X172.479 Y135.338 E19.3177
G1 X172.318 Y135.555 E19.32624
G1 X172.095 Y135.844 E19.33777
G1 X171.675 Y136.343 E19.35838
G1 X171.473 Y136.568 E19.36793
G1 X171.171 Y136.89 E19.38188
G1 X171.03 Y137.034 E19.38825
G1 X170.547 Y137.496 E19.40937
G1 X170.432 Y137.599 E19.41425
G1 X169.958 Y137.998 E19.43382
G1 X169.646 Y138.245 E19.4464
G1 X168.848 Y138.817 E19.47742
G1 X168.529 Y139.023 E19.48942
G1 X167.728 Y139.49 E19.51872
G1 X167.453 Y139.634 E19.52852
G1 X166.761 Y139.964 E19.55275
G1 X166.499 Y140.077 E19.56176
G1 X166.161 Y140.216 E19.57331
G1 X165.598 Y140.42 E19.59223
G1 X165.292 Y140.521 E19.60241
G1 X164.597 Y140.723 E19.62528
G1 X164.348 Y140.786 E19.6334
G1 X163.862 Y140.897 E19.64915
G1 X163.738 Y140.922 E19.65315
G1 X163.195 Y141.016 E19.67056
G1 X162.921 Y141.056 E19.67931
G1 X162.542 Y141.104 E19.69138
G1 X161.611 Y141.167 E19.72086
G1 X160.145 Y141.198 E19.7672
G1 X159.929 Y141.2 E19.77402
G1 X89.541 Y141.198 E21.99808
G1 X88.719 Y141.186 E22.02406
G1 X88.294 Y141.171 E22.03749
G1 X88.099 Y141.16 E22.04366
G1 X87.486 Y141.107 E22.06311
G1 X87.23 Y141.077 E22.07125
G1 X86.778 Y141.014 E22.08567
G1 X86.288 Y140.925 E22.10141
G1 X85.993 Y140.864 E22.11092
G1 X85.553 Y140.763 E22.12519
G1 X85.478 Y140.744 E22.12763
G1 X85.067 Y140.63 E22.14111
G1 X84.819 Y140.556 E22.14929
G1 X84.431 Y140.433 E22.16215
G1 X83.856 Y140.221 E22.18151
G1 X83.602 Y140.119 E22.19016
G1 X83.234 Y139.963 E22.20279
G1 X82.747 Y139.734 E22.21979
G1 X82.495 Y139.607 E22.22871
G1 X82.089 Y139.391 E22.24324
G1 X81.65 Y139.135 E22.2593
G1 X81.449 Y139.011 E22.26676
G1 X81.111 Y138.794 E22.27945
G1 X80.595 Y138.429 E22.29942
G1 X80.326 Y138.226 E22.31007
G1 X79.648 Y137.667 E22.33784
G1 X79.419 Y137.461 E22.34757
G1 X78.899 Y136.958 E22.37043
G1 X78.656 Y136.706 E22.38149
G1 X78.003 Y135.96 E22.41282
G1 X77.759 Y135.652 E22.42523
G1 X77.202 Y134.877 E22.45539
G1 X77.02 Y134.597 E22.46594
G1 X76.662 Y134.003 E22.48785
G1 X76.55 Y133.802 E22.49512
G1 X76.352 Y133.43 E22.50844
G1 X76.293 Y133.313 E22.51258
G1 X76.009 Y132.699 E22.53396
G1 X75.873 Y132.378 E22.54497
G1 X75.576 Y131.586 E22.5717
G1 X75.476 Y131.282 E22.58181
G1 X75.277 Y130.597 E22.60435
G1 X75.214 Y130.348 E22.61246
G1 X75.103 Y129.862 E22.62822
G1 X75.078 Y129.738 E22.63221
G1 X74.977 Y129.147 E22.65116
G1 X74.931 Y128.821 E22.66156
G1 X74.833 Y127.61 E22.69995
G1 X74.802 Y126.133 E22.74663
G1 X74.8 Y125.919 E22.75339
G1 X74.801 Y121.544 E22.89163
G1 X74.808 Y121.083 E22.9062
G1 X74.818 Y120.758 E22.91647
G1 X74.842 Y120.249 E22.93257
G1 X74.97 Y119.052 E22.97061
G1 X74.988 Y118.944 E22.97407
G1 X75.255 Y117.773 E23.01202
G1 X75.346 Y117.46 E23.02232
G1 X75.778 Y116.259 E23.06265
G1 X75.871 Y116.044 E23.07005
G1 X76.441 Y114.921 E23.10984
G1 X76.561 Y114.717 E23.11732
G1 X77.208 Y113.749 E23.15411
G1 X77.306 Y113.619 E23.15925
G1 X78.14 Y112.647 E23.19972
G1 X78.39 Y112.39 E23.21105
G1 X79.304 Y111.557 E23.25012
G1 X79.458 Y111.433 E23.25637
G1 F1500 E17.25637
;MESH:PCB Mount Support.stl
G0 F7500 X86.679 Y118.355
G0 X87.024 Y119.419
G0 X86.203 Y120.806
G0 X86.183 Y127.242
G0 X86.338 Y127.954
G0 X86.68 Y128.617
G0 X87.191 Y129.172
G0 X87.805 Y129.564
G0 X88.514 Y129.787
G0 X89.04 Y129.828
G0 X110.795 Y129.78
G0 X112.168 Y129.582
