;FLAVOR:Marlin
;TIME:9368
;Filament used: 7.14299m
;Layer height: 0.2
;MINX:49.101
;MINY:84.1
;MINZ:0.2
;MAXX:200.9
;MAXY:165.9
;MAXZ:4
;POSTPROCESSED
;Generated with Cura_SteamEngine 4.10.0
M140 S70
M105
M190 S70
M104 S210
M105
M109 S210
M82 ;absolute extrusion mode
; Ender 3 Custom Start G-code
G92 E0 ; Reset Extruder
G28 ; Home all axes
G1 Z2.0 F3000 ; Move Z Axis up little to prevent scratching of Heat Bed
G1 X0.1 Y20 Z0.3 F5000.0 ; Move to start position
G1 X0.1 Y200.0 Z0.3 F1500.0 E15 ; Draw the first line
G1 X0.4 Y200.0 Z0.3 F5000.0 ; Move to side a little
G1 X0.4 Y20 Z0.3 F1500.0 E30 ; Draw the second line
G92 E0 ; Reset Extruder
G1 Z2.0 F3000 ; Move Z Axis up little to prevent scratching of Heat Bed
G1 X5 Y20 Z0.3 F5000.0 ; Move over to prevent blob squish
G92 E0
G92 E0
G1 F1500 E-6
;LAYER_COUNT:20
;LAYER:0
M117 Layer 1 of 20 Top
M107
M204 S500
M205 X8 Y8
G0 F7500 X56.47 Y86.6 Z0.2
;TYPE:SKIRT
G1 F1500 E0
G1 X56.984 Y86.282 E0.0191
G1 X57.331 Y86.086 E0.03169
G1 X57.529 Y85.979 E0.0388
G1 X57.808 Y85.833 E0.04875
G1 X57.933 Y85.77 E0.05317
G1 X58.554 Y85.481 E0.07482
G1 X58.902 Y85.332 E0.08678
G1 X59.549 Y85.079 E0.10873
G1 X59.822 Y84.982 E0.11788
G1 X60.331 Y84.815 E0.13481
G1 X60.477 Y84.771 E0.13963
G1 X61.13 Y84.596 E0.16099
G1 X61.627 Y84.479 E0.17712
G1 X62.609 Y84.294 E0.2087
G1 X62.878 Y84.256 E0.21728
G1 X63.424 Y84.193 E0.23465
G1 X63.755 Y84.163 E0.24515
G1 X64.413 Y84.123 E0.26598
G1 X65.003 Y84.105 E0.28463
G1 X65.338 Y84.1 E0.29521
G1 X184.299 Y84.1 E4.05404
G1 X185.299 Y84.113 E4.08564
G1 X185.807 Y84.132 E4.1017
G1 X186.055 Y84.147 E4.10955
G1 X186.668 Y84.201 E4.129
G1 X186.993 Y84.239 E4.13934
G1 X187.412 Y84.297 E4.1527
G1 X187.553 Y84.319 E4.15721
G1 X188.081 Y84.414 E4.17416
G1 X188.299 Y84.459 E4.1812
G1 X188.661 Y84.54 E4.19292
G1 X188.814 Y84.577 E4.19789
G1 X189.383 Y84.731 E4.21652
G1 X189.707 Y84.828 E4.2272
G1 X190.055 Y84.939 E4.23874
G1 X190.183 Y84.982 E4.24301
G1 X190.742 Y85.187 E4.26182
G1 X190.971 Y85.278 E4.26961
G1 X191.314 Y85.42 E4.28134
G1 X191.433 Y85.472 E4.28544
G1 X191.96 Y85.72 E4.30385
G1 X192.265 Y85.873 E4.31463
G1 X192.897 Y86.216 E4.33735
G1 X193.175 Y86.379 E4.34753
G1 X193.686 Y86.698 E4.36657
G1 X193.843 Y86.802 E4.37252
G1 X194.334 Y87.147 E4.39148
G1 X194.627 Y87.365 E4.40302
G1 X194.911 Y87.583 E4.41433
G1 X195.009 Y87.661 E4.41829
G1 X195.515 Y88.089 E4.43923
G1 X195.674 Y88.232 E4.44598
G1 X196.014 Y88.55 E4.46069
G1 X196.435 Y88.972 E4.47953
G1 X196.639 Y89.188 E4.48892
G1 X196.892 Y89.466 E4.50079
G1 X196.989 Y89.576 E4.50543
G1 X197.344 Y89.999 E4.52288
G1 X197.512 Y90.21 E4.5314
G1 X197.763 Y90.537 E4.54442
G1 X197.819 Y90.613 E4.54741
G1 X198.162 Y91.106 E4.56638
G1 X198.402 Y91.472 E4.58021
G1 X198.64 Y91.851 E4.59435
G1 X198.917 Y92.336 E4.612
G1 X199.019 Y92.525 E4.61879
G1 X199.163 Y92.8 E4.62859
G1 X199.23 Y92.933 E4.6333
G1 X199.532 Y93.585 E4.656
G1 X199.717 Y94.021 E4.67097
G1 X200.07 Y94.972 E4.70302
G1 X200.176 Y95.304 E4.71403
G1 X200.405 Y96.131 E4.74115
G1 X200.521 Y96.624 E4.75715
G1 X200.699 Y97.564 E4.78738
G1 X200.737 Y97.826 E4.79574
G1 X200.81 Y98.456 E4.81578
G1 X200.841 Y98.814 E4.82714
G1 X200.877 Y99.428 E4.84657
G1 X200.897 Y100.135 E4.86892
G1 X200.9 Y100.432 E4.8783
G1 X200.899 Y149.456 E6.42732
G1 X200.887 Y150.299 E6.45396
G1 X200.868 Y150.801 E6.46983
G1 X200.853 Y151.051 E6.47775
G1 X200.798 Y151.673 E6.49748
G1 X200.76 Y151.997 E6.50779
G1 X200.702 Y152.424 E6.5214
G1 X200.68 Y152.564 E6.52588
G1 X200.59 Y153.06 E6.54181
G1 X200.545 Y153.28 E6.5489
G1 X200.462 Y153.653 E6.56098
G1 X200.422 Y153.819 E6.56637
G1 X200.265 Y154.4 E6.58539
G1 X200.176 Y154.697 E6.59519
G1 X200.075 Y155.018 E6.60582
G1 X200.034 Y155.141 E6.60991
G1 X199.821 Y155.723 E6.6295
G1 X199.734 Y155.942 E6.63694
G1 X199.618 Y156.223 E6.64655
G1 X199.56 Y156.358 E6.65119
G1 X199.274 Y156.97 E6.67254
G1 X199.103 Y157.309 E6.68453
G1 X198.823 Y157.83 E6.70322
G1 X198.687 Y158.067 E6.71186
G1 X198.308 Y158.679 E6.7346
G1 X198.213 Y158.822 E6.74003
G1 X197.872 Y159.307 E6.75876
G1 X197.609 Y159.66 E6.77267
G1 X197.376 Y159.962 E6.78472
G1 X196.938 Y160.484 E6.80625
G1 X196.795 Y160.644 E6.81303
G1 X196.55 Y160.909 E6.82443
G1 X196.445 Y161.019 E6.82924
G1 X196.039 Y161.423 E6.84734
G1 X195.789 Y161.659 E6.8582
G1 X195.29 Y162.102 E6.87928
G1 X195.029 Y162.32 E6.89003
G1 X194.486 Y162.746 E6.91184
G1 X194.377 Y162.826 E6.91611
G1 X193.919 Y163.144 E6.93373
G1 X193.541 Y163.393 E6.94803
G1 X193.012 Y163.721 E6.9677
G1 X192.685 Y163.905 E6.97955
G1 X192.482 Y164.015 E6.98685
G1 X192.192 Y164.167 E6.99719
G1 X192.067 Y164.23 E7.00162
G1 X191.446 Y164.519 E7.02326
G1 X191.098 Y164.668 E7.03522
G1 X190.451 Y164.921 E7.05717
G1 X190.178 Y165.018 E7.06632
G1 X189.669 Y165.185 E7.08325
G1 X189.523 Y165.229 E7.08807
G1 X188.87 Y165.404 E7.10943
G1 X188.373 Y165.521 E7.12556
G1 X187.391 Y165.706 E7.15714
G1 X187.122 Y165.744 E7.16572
G1 X186.576 Y165.807 E7.18309
G1 X186.245 Y165.837 E7.19359
G1 X185.587 Y165.877 E7.21442
G1 X184.997 Y165.895 E7.23307
G1 X184.662 Y165.9 E7.24366
G1 X65.544 Y165.899 E11.00744
G1 X64.701 Y165.887 E11.03408
G1 X64.199 Y165.868 E11.04995
G1 X63.949 Y165.853 E11.05787
G1 X63.327 Y165.798 E11.0776
G1 X63.003 Y165.76 E11.08791
G1 X62.588 Y165.703 E11.10114
G1 X62.447 Y165.681 E11.10565
G1 X61.919 Y165.586 E11.1226
G1 X61.701 Y165.541 E11.12964
G1 X61.339 Y165.46 E11.14136
G1 X61.186 Y165.423 E11.14633
G1 X60.617 Y165.269 E11.16496
G1 X60.293 Y165.172 E11.17564
G1 X59.945 Y165.061 E11.18718
G1 X59.817 Y165.018 E11.19145
G1 X59.258 Y164.813 E11.21026
G1 X59.029 Y164.722 E11.21805
G1 X58.639 Y164.559 E11.23141
G1 X58.517 Y164.505 E11.23562
G1 X58.05 Y164.285 E11.25193
G1 X57.748 Y164.134 E11.2626
G1 X57.103 Y163.784 E11.28579
G1 X56.825 Y163.621 E11.29597
G1 X56.328 Y163.312 E11.31446
G1 X56.172 Y163.209 E11.32037
G1 X55.662 Y162.851 E11.34006
G1 X55.368 Y162.632 E11.35164
G1 X55.078 Y162.408 E11.36322
G1 X54.979 Y162.329 E11.36722
G1 X54.487 Y161.912 E11.3876
G1 X54.329 Y161.77 E11.39431
G1 X54.082 Y161.541 E11.40495
G1 X53.969 Y161.433 E11.40989
G1 X53.576 Y161.038 E11.4275
G1 X53.333 Y160.781 E11.43867
G1 X52.988 Y160.399 E11.45494
G1 X52.914 Y160.313 E11.45852
G1 X52.628 Y159.967 E11.47271
G1 X52.472 Y159.77 E11.48065
G1 X52.17 Y159.37 E11.49648
G1 X51.83 Y158.883 E11.51525
G1 X51.623 Y158.568 E11.52716
G1 X51.249 Y157.956 E11.54982
G1 X51.106 Y157.704 E11.55898
G1 X50.819 Y157.163 E11.57833
G1 X50.756 Y157.036 E11.58281
G1 X50.492 Y156.464 E11.60271
G1 X50.277 Y155.96 E11.62003
G1 X49.894 Y154.919 E11.65508
G1 X49.802 Y154.624 E11.66484
G1 X49.596 Y153.87 E11.68954
G1 X49.479 Y153.373 E11.70567
G1 X49.294 Y152.391 E11.73724
G1 X49.256 Y152.122 E11.74583
G1 X49.212 Y151.768 E11.7571
G1 X49.19 Y151.565 E11.76355
G1 X49.147 Y151.06 E11.77957
G1 X49.124 Y150.606 E11.79393
G1 X49.106 Y150.023 E11.81236
G1 X49.101 Y149.684 E11.82307
G1 X49.101 Y100.554 E13.37544
G1 X49.113 Y99.715 E13.40195
G1 X49.129 Y99.255 E13.41649
G1 X49.143 Y99.006 E13.42438
G1 X49.205 Y98.308 E13.44652
G1 X49.254 Y97.901 E13.45947
G1 X49.373 Y97.137 E13.4839
G1 X49.424 Y96.872 E13.49243
G1 X49.532 Y96.374 E13.50853
G1 X49.579 Y96.179 E13.51487
G1 X49.732 Y95.612 E13.53342
G1 X49.82 Y95.317 E13.54315
G1 X49.925 Y94.982 E13.55424
G1 X49.968 Y94.853 E13.55854
G1 X50.184 Y94.263 E13.57839
G1 X50.272 Y94.042 E13.58591
G1 X50.408 Y93.717 E13.59704
G1 X50.469 Y93.577 E13.60187
G1 X50.733 Y93.015 E13.62148
G1 X50.893 Y92.698 E13.6327
G1 X51.213 Y92.109 E13.65388
G1 X51.363 Y91.852 E13.66329
G1 X51.654 Y91.381 E13.68078
G1 X51.752 Y91.231 E13.68644
G1 X52.149 Y90.663 E13.70834
G1 X52.406 Y90.319 E13.72191
G1 X52.93 Y89.67 E13.74826
G1 X53.122 Y89.45 E13.75749
G1 X53.448 Y89.093 E13.77276
G1 X53.55 Y88.986 E13.77744
G1 X53.971 Y88.568 E13.79618
G1 X54.228 Y88.326 E13.80733
G1 X54.72 Y87.889 E13.82813
G1 X54.974 Y87.677 E13.83858
G1 X55.475 Y87.283 E13.85872
G1 X55.583 Y87.203 E13.86297
G1 X56.091 Y86.849 E13.88253
G1 X56.47 Y86.6 E13.89686
G0 F7500 X56.69 Y86.934
G1 F1500 X57.187 Y86.626 E13.91533
G1 X57.522 Y86.438 E13.92747
G1 X57.72 Y86.331 E13.93458
G1 X57.988 Y86.19 E13.94415
G1 X58.113 Y86.127 E13.94858
G1 X58.712 Y85.849 E13.96944
G1 X59.06 Y85.7 E13.9814
G1 X59.683 Y85.456 E14.00254
G1 X59.956 Y85.359 E14.0117
G1 X60.446 Y85.198 E14.02799
G1 X60.592 Y85.154 E14.03281
G1 X61.222 Y84.985 E14.05342
G1 X61.719 Y84.868 E14.06956
G1 X62.665 Y84.69 E14.09997
G1 X62.934 Y84.652 E14.10855
G1 X63.46 Y84.591 E14.12529
G1 X63.791 Y84.561 E14.13579
G1 X64.425 Y84.523 E14.15586
G1 X65.015 Y84.505 E14.17451
G1 X65.338 Y84.5 E14.18471
G1 X184.299 Y84.5 E17.94354
G1 X185.294 Y84.513 E17.97498
G1 X185.783 Y84.531 E17.99044
G1 X186.031 Y84.546 E17.99829
G1 X186.622 Y84.599 E18.01704
G1 X186.947 Y84.637 E18.02738
G1 X187.35 Y84.692 E18.04023
G1 X187.491 Y84.714 E18.04474
G1 X188 Y84.806 E18.06109
G1 X188.218 Y84.851 E18.06812
G1 X188.567 Y84.929 E18.07942
G1 X188.72 Y84.966 E18.08439
G1 X189.268 Y85.114 E18.10233
G1 X189.592 Y85.211 E18.11301
G1 X189.928 Y85.318 E18.12416
G1 X190.056 Y85.361 E18.12842
G1 X190.594 Y85.558 E18.14653
G1 X190.823 Y85.649 E18.15431
G1 X191.153 Y85.787 E18.16561
G1 X191.272 Y85.839 E18.16972
G1 X191.781 Y86.077 E18.18747
G1 X192.086 Y86.23 E18.19825
G1 X192.694 Y86.561 E18.22013
G1 X192.972 Y86.724 E18.23031
G1 X193.465 Y87.031 E18.24866
G1 X193.622 Y87.135 E18.25461
G1 X194.095 Y87.468 E18.27289
G1 X194.388 Y87.686 E18.28443
G1 X194.662 Y87.896 E18.29534
G1 X194.76 Y87.974 E18.29929
G1 X195.247 Y88.387 E18.31947
G1 X195.619 Y88.726 E18.33537
G1 X195.739 Y88.84 E18.3406
G1 X196.144 Y89.247 E18.35874
G1 X196.348 Y89.463 E18.36813
G1 X196.592 Y89.73 E18.37956
G1 X196.689 Y89.84 E18.38419
G1 X197.032 Y90.248 E18.40104
G1 X197.2 Y90.459 E18.40956
G1 X197.497 Y90.85 E18.42507
G1 X197.827 Y91.325 E18.44335
G1 X198.067 Y91.691 E18.45718
G1 X198.298 Y92.059 E18.47091
G1 X198.565 Y92.526 E18.4879
G1 X198.667 Y92.715 E18.49469
G1 X198.806 Y92.98 E18.50415
G1 X198.873 Y93.113 E18.50885
G1 X199.164 Y93.742 E18.53075
G1 X199.349 Y94.178 E18.54571
G1 X199.689 Y95.094 E18.57659
G1 X199.795 Y95.426 E18.5876
G1 X200.015 Y96.222 E18.61369
G1 X200.131 Y96.715 E18.6297
G1 X200.303 Y97.622 E18.65887
G1 X200.341 Y97.884 E18.66723
G1 X200.411 Y98.491 E18.68654
G1 X200.442 Y98.849 E18.69789
G1 X200.477 Y99.44 E18.7166
G1 X200.497 Y100.141 E18.73876
G1 X200.5 Y100.432 E18.74795
G1 X200.499 Y149.45 E20.29678
G1 X200.487 Y150.293 E20.32342
G1 X200.469 Y150.777 E20.33872
G1 X200.454 Y151.027 E20.34664
G1 X200.401 Y151.627 E20.36567
G1 X200.363 Y151.951 E20.37598
G1 X200.306 Y152.362 E20.38909
G1 X200.284 Y152.502 E20.39356
G1 X200.198 Y152.98 E20.40891
G1 X200.153 Y153.2 E20.41601
G1 X200.073 Y153.559 E20.42763
G1 X200.033 Y153.725 E20.43302
G1 X199.882 Y154.285 E20.45135
G1 X199.793 Y154.582 E20.46115
G1 X199.654 Y155.014 E20.47548
G1 X199.449 Y155.575 E20.49436
G1 X199.362 Y155.794 E20.5018
G1 X199.192 Y156.2 E20.51571
G1 X198.917 Y156.79 E20.53628
G1 X198.746 Y157.129 E20.54827
G1 X198.476 Y157.631 E20.56629
G1 X198.34 Y157.868 E20.57492
G1 X197.975 Y158.458 E20.59684
G1 X197.88 Y158.601 E20.60227
G1 X197.551 Y159.068 E20.62032
G1 X197.288 Y159.421 E20.63422
G1 X197.062 Y159.714 E20.64592
G1 X196.639 Y160.218 E20.66671
G1 X196.496 Y160.378 E20.67349
G1 X196.261 Y160.633 E20.68444
G1 X196.156 Y160.743 E20.68925
G1 X195.764 Y161.132 E20.7067
G1 X195.514 Y161.368 E20.71756
G1 X195.033 Y161.795 E20.73788
G1 X194.772 Y162.013 E20.74863
G1 X194.249 Y162.423 E20.76963
G1 X194.14 Y162.503 E20.7739
G1 X193.699 Y162.81 E20.79088
G1 X193.321 Y163.059 E20.80518
G1 X192.81 Y163.376 E20.82418
G1 X192.494 Y163.554 E20.83564
G1 X192.291 Y163.664 E20.84294
G1 X192.012 Y163.81 E20.85289
G1 X191.887 Y163.873 E20.85731
G1 X191.288 Y164.151 E20.87817
G1 X190.94 Y164.3 E20.89014
G1 X190.317 Y164.544 E20.91128
G1 X190.044 Y164.641 E20.92043
G1 X189.554 Y164.802 E20.93673
G1 X189.408 Y164.846 E20.94155
G1 X188.778 Y165.015 E20.96216
G1 X188.281 Y165.132 E20.97829
G1 X187.335 Y165.31 E21.0087
G1 X187.066 Y165.348 E21.01729
G1 X186.54 Y165.409 E21.03402
G1 X186.209 Y165.439 E21.04452
G1 X185.575 Y165.477 E21.06459
G1 X184.985 Y165.495 E21.08324
G1 X184.662 Y165.5 E21.09345
G1 X65.55 Y165.499 E24.85705
G1 X64.707 Y165.487 E24.88368
G1 X64.223 Y165.469 E24.89899
G1 X63.973 Y165.454 E24.9069
G1 X63.373 Y165.401 E24.92593
G1 X63.049 Y165.363 E24.93624
G1 X62.65 Y165.308 E24.94897
G1 X62.509 Y165.286 E24.95348
G1 X62 Y165.194 E24.96982
G1 X61.782 Y165.149 E24.97685
G1 X61.433 Y165.071 E24.98815
G1 X61.28 Y165.034 E24.99313
G1 X60.732 Y164.886 E25.01106
G1 X60.408 Y164.789 E25.02175
G1 X60.072 Y164.682 E25.03289
G1 X59.944 Y164.639 E25.03716
G1 X59.406 Y164.442 E25.05526
G1 X59.177 Y164.351 E25.06305
G1 X58.801 Y164.193 E25.07593
G1 X58.679 Y164.139 E25.08015
G1 X58.229 Y163.927 E25.09587
G1 X57.927 Y163.776 E25.10654
G1 X57.306 Y163.439 E25.12886
G1 X57.028 Y163.276 E25.13904
G1 X56.548 Y162.978 E25.15689
G1 X56.392 Y162.875 E25.1628
G1 X55.901 Y162.53 E25.18176
G1 X55.607 Y162.311 E25.19335
G1 X55.327 Y162.095 E25.20452
G1 X55.228 Y162.016 E25.20852
G1 X54.754 Y161.615 E25.22814
G1 X54.596 Y161.473 E25.23485
G1 X54.358 Y161.252 E25.24511
G1 X54.245 Y161.144 E25.25005
G1 X53.867 Y160.764 E25.26699
G1 X53.624 Y160.507 E25.27816
G1 X53.291 Y160.138 E25.29387
G1 X53.217 Y160.052 E25.29745
G1 X52.942 Y159.719 E25.3111
G1 X52.786 Y159.522 E25.31904
G1 X52.565 Y159.232 E25.33056
G1 X52.492 Y159.133 E25.33445
G1 X52.165 Y158.663 E25.35254
G1 X51.958 Y158.348 E25.36445
G1 X51.597 Y157.758 E25.3863
G1 X51.454 Y157.506 E25.39546
G1 X51.177 Y156.986 E25.41407
G1 X51.114 Y156.859 E25.41855
G1 X50.86 Y156.307 E25.43775
G1 X50.645 Y155.803 E25.45507
G1 X50.276 Y154.8 E25.48884
G1 X50.184 Y154.505 E25.4986
G1 X49.985 Y153.778 E25.52242
G1 X49.868 Y153.281 E25.53855
G1 X49.69 Y152.335 E25.56896
G1 X49.652 Y152.066 E25.57755
G1 X49.61 Y151.725 E25.5884
G1 X49.588 Y151.522 E25.59486
G1 X49.546 Y151.035 E25.6103
G1 X49.524 Y150.594 E25.62425
G1 X49.506 Y150.011 E25.64268
G1 X49.501 Y149.684 E25.65302
G1 X49.501 Y100.559 E27.20522
G1 X49.513 Y99.72 E27.23174
G1 X49.529 Y99.277 E27.24574
G1 X49.543 Y99.028 E27.25362
G1 X49.602 Y98.356 E27.27494
G1 X49.651 Y97.949 E27.28789
G1 X49.766 Y97.213 E27.31143
G1 X49.817 Y96.948 E27.31996
G1 X49.921 Y96.467 E27.33551
G1 X49.968 Y96.272 E27.34184
G1 X50.115 Y95.726 E27.35971
G1 X50.203 Y95.431 E27.36944
G1 X50.305 Y95.109 E27.38011
G1 X50.348 Y94.98 E27.38441
G1 X50.556 Y94.411 E27.40355
G1 X50.644 Y94.19 E27.41106
G1 X50.774 Y93.877 E27.42177
G1 X50.835 Y93.737 E27.4266
G1 X51.09 Y93.195 E27.44553
G1 X51.25 Y92.878 E27.45675
G1 X51.558 Y92.311 E27.47713
G1 X51.708 Y92.054 E27.48654
G1 X51.989 Y91.599 E27.50343
G1 X52.087 Y91.449 E27.50909
G1 X52.469 Y90.903 E27.53015
G1 X52.726 Y90.559 E27.54372
G1 X53.232 Y89.933 E27.56915
G1 X53.424 Y89.713 E27.57838
G1 X53.738 Y89.369 E27.59309
G1 X53.84 Y89.262 E27.59777
G1 X54.245 Y88.859 E27.61582
G1 X54.502 Y88.617 E27.62697
G1 X54.977 Y88.196 E27.64703
G1 X55.231 Y87.984 E27.65748
G1 X55.714 Y87.604 E27.6769
G1 X55.822 Y87.524 E27.68115
G1 X56.311 Y87.183 E27.69998
G1 X56.69 Y86.934 E27.71431
G0 F7500 X56.909 Y87.268
G1 F1500 X57.389 Y86.971 E27.73215
G1 X57.712 Y86.789 E27.74386
G1 X57.91 Y86.682 E27.75097
G1 X58.168 Y86.547 E27.76017
G1 X58.293 Y86.484 E27.7646
G1 X58.869 Y86.216 E27.78467
G1 X59.217 Y86.067 E27.79663
G1 X59.817 Y85.833 E27.81698
G1 X60.09 Y85.736 E27.82613
G1 X60.562 Y85.581 E27.84183
G1 X60.708 Y85.537 E27.84665
G1 X61.314 Y85.374 E27.86648
G1 X61.811 Y85.257 E27.88261
G1 X62.721 Y85.086 E27.91187
G1 X62.99 Y85.048 E27.92045
G1 X63.496 Y84.99 E27.93654
G1 X63.827 Y84.96 E27.94705
G1 X64.437 Y84.923 E27.96636
G1 X65.027 Y84.905 E27.98501
G1 X65.338 Y84.9 E27.99484
G1 X184.299 Y84.9 E31.75366
G1 X185.288 Y84.913 E31.78491
G1 X185.759 Y84.931 E31.79981
G1 X186.007 Y84.946 E31.80766
G1 X186.576 Y84.996 E31.8257
G1 X186.901 Y85.034 E31.83604
G1 X187.288 Y85.087 E31.84839
G1 X187.429 Y85.109 E31.8529
G1 X187.919 Y85.198 E31.86863
G1 X188.137 Y85.243 E31.87566
G1 X188.473 Y85.318 E31.88654
