;FLAVOR:Marlin
;TIME:6854
;Filament used: 4.53352m
;Layer height: 0.2
;MINX:82.116
;MINY:82.116
;MINZ:0.2
;MAXX:167.885
;MAXY:167.884
;MAXZ:17
;POSTPROCESSED
;Generated with Cura_SteamEngine 4.10.0
M140 S70
M105
M190 S70
M104 S210
M105
M109 S210
M82 ;absolute extrusion mode
; Ender 3 Custom Start G-code
G92 E0 ; Reset Extruder
G28 ; Home all axes
G1 Z2.0 F3000 ; Move Z Axis up little to prevent scratching of Heat Bed
G1 X0.1 Y20 Z0.3 F5000.0 ; Move to start position
G1 X0.1 Y200.0 Z0.3 F1500.0 E15 ; Draw the first line
G1 X0.4 Y200.0 Z0.3 F5000.0 ; Move to side a little
G1 X0.4 Y20 Z0.3 F1500.0 E30 ; Draw the second line
G92 E0 ; Reset Extruder
G1 Z2.0 F3000 ; Move Z Axis up little to prevent scratching of Heat Bed
G1 X5 Y20 Z0.3 F5000.0 ; Move over to prevent blob squish
G92 E0
G92 E0
G1 F1500 E-6
;LAYER_COUNT:85
;LAYER:0
M117 Layer 1 of 85 Wheel Inside
M107
M204 S500
M205 X8 Y8
G0 F7500 X94.878 Y94.477 Z0.2
;TYPE:SKIRT
G1 F1500 E0
G1 X95.593 Y93.802 E0.03107
G1 X96.69 Y92.8 E0.07801
G1 X97.195 Y92.351 E0.09937
G1 X97.674 Y91.949 E0.11912
G1 X98.416 Y91.363 E0.149
G1 X99.471 Y90.554 E0.19101
G1 X100.147 Y90.051 E0.21763
G1 X100.648 Y89.7 E0.23696
G1 X101.419 Y89.193 E0.26612
G1 X102.634 Y88.42 E0.31162
G1 X103.243 Y88.044 E0.33423
G1 X103.794 Y87.726 E0.35433
G1 X104.694 Y87.241 E0.38664
G1 X105.929 Y86.6 E0.4306
G1 X106.593 Y86.266 E0.45409
G1 X107.185 Y85.99 E0.47473
G1 X108.01 Y85.636 E0.50309
G1 X109.378 Y85.071 E0.54986
G1 X110 Y84.823 E0.57102
G1 X110.612 Y84.6 E0.5916
G1 X111.534 Y84.295 E0.62228
G1 X112.775 Y83.904 E0.6634
G1 X113.543 Y83.674 E0.68873
G1 X114.152 Y83.51 E0.70866
G1 X114.989 Y83.311 E0.73584
G1 X116.545 Y82.967 E0.78619
G1 X117.227 Y82.826 E0.8082
G1 X117.858 Y82.714 E0.82845
G1 X118.809 Y82.576 E0.85881
G1 X120.218 Y82.391 E0.90371
G1 X120.913 Y82.31 E0.92582
G1 X121.537 Y82.255 E0.94561
G1 X122.523 Y82.198 E0.97682
G1 X123.961 Y82.137 E1.0223
G1 X124.657 Y82.116 E1.0443
G1 X125.312 Y82.116 E1.065
G1 X126.261 Y82.145 E1.095
G1 X127.715 Y82.211 E1.14099
G1 X128.418 Y82.252 E1.16324
G1 X129.055 Y82.307 E1.18344
G1 X129.986 Y82.417 E1.21306
G1 X131.29 Y82.589 E1.25462
G1 X132.095 Y82.706 E1.28032
G1 X132.736 Y82.818 E1.30088
G1 X133.698 Y83.018 E1.33193
G1 X135.127 Y83.336 E1.37819
G1 X135.758 Y83.486 E1.39868
G1 X136.356 Y83.646 E1.41824
G1 X137.351 Y83.944 E1.45106
G1 X138.525 Y84.315 E1.48996
G1 X139.368 Y84.594 E1.51802
G1 X139.955 Y84.807 E1.53775
G1 X140.836 Y85.157 E1.5677
G1 X142.18 Y85.716 E1.6137
G1 X142.832 Y85.998 E1.63614
G1 X143.396 Y86.261 E1.6558
G1 X144.241 Y86.686 E1.68569
G1 X145.395 Y87.286 E1.72679
G1 X146.157 Y87.697 E1.75414
G1 X146.698 Y88.009 E1.77388
G1 X147.503 Y88.506 E1.80377
G1 X148.725 Y89.287 E1.84959
G1 X149.337 Y89.69 E1.87275
G1 X149.857 Y90.055 E1.89282
G1 X150.648 Y90.645 E1.924
G1 X151.774 Y91.512 E1.9689
G1 X152.305 Y91.931 E1.99028
G1 X152.814 Y92.358 E2.01127
G1 X153.48 Y92.953 E2.03949
G1 X154.476 Y93.866 E2.08218
G1 X155.095 Y94.45 E2.10907
G1 X155.536 Y94.891 E2.12878
G1 X156.211 Y95.608 E2.15989
G1 X157.188 Y96.677 E2.20565
G1 X157.654 Y97.202 E2.22783
G1 X158.05 Y97.674 E2.2473
G1 X158.637 Y98.417 E2.27722
G1 X159.443 Y99.467 E2.31904
G1 X159.944 Y100.14 E2.34555
G1 X160.301 Y100.649 E2.3652
G1 X160.807 Y101.419 E2.39431
G1 X161.58 Y102.634 E2.43981
G1 X161.956 Y103.243 E2.46243
G1 X162.274 Y103.794 E2.48253
G1 X162.759 Y104.694 E2.51483
G1 X163.397 Y105.923 E2.55858
G1 X163.726 Y106.576 E2.58169
G1 X164.007 Y107.178 E2.60268
G1 X164.371 Y108.028 E2.6319
G1 X164.935 Y109.391 E2.67851
G1 X165.181 Y110.009 E2.69952
G1 X165.404 Y110.62 E2.72007
G1 X165.691 Y111.491 E2.74905
G1 X166.154 Y112.962 E2.79778
G1 X166.329 Y113.547 E2.81707
G1 X166.492 Y114.156 E2.83699
G1 X166.719 Y115.118 E2.86822
G1 X167.032 Y116.541 E2.91426
G1 X167.172 Y117.217 E2.93607
G1 X167.283 Y117.841 E2.9561
G1 X167.425 Y118.81 E2.98704
G1 X167.61 Y120.223 E3.03207
G1 X167.689 Y120.895 E3.05345
G1 X167.745 Y121.539 E3.07388
G1 X167.801 Y122.518 E3.10486
G1 X167.864 Y123.974 E3.15091
G1 X167.884 Y124.659 E3.17256
G1 X167.885 Y125.294 E3.19263
G1 X167.862 Y126.099 E3.21807
G1 X167.798 Y127.554 E3.26409
G1 X167.748 Y128.425 E3.29166
G1 X167.692 Y129.057 E3.3117
G1 X167.582 Y129.991 E3.34142
G1 X167.411 Y131.289 E3.38279
G1 X167.294 Y132.095 E3.40852
G1 X167.182 Y132.736 E3.42908
G1 X166.982 Y133.698 E3.46013
G1 X166.663 Y135.129 E3.50645
G1 X166.51 Y135.772 E3.52734
G1 X166.353 Y136.36 E3.54657
G1 X166.074 Y137.293 E3.57734
G1 X165.626 Y138.711 E3.62433
G1 X165.418 Y139.34 E3.64526
G1 X165.197 Y139.948 E3.6657
G1 X164.899 Y140.698 E3.6912
G1 X164.356 Y142.009 E3.73604
G1 X164.003 Y142.828 E3.76422
G1 X163.746 Y143.381 E3.78348
G1 X163.387 Y144.099 E3.80885
G1 X162.708 Y145.404 E3.85533
G1 X162.322 Y146.123 E3.88112
G1 X162 Y146.683 E3.90153
G1 X161.469 Y147.542 E3.93344
G1 X160.719 Y148.716 E3.97745
G1 X160.326 Y149.314 E4.00006
G1 X159.953 Y149.846 E4.02059
G1 X159.353 Y150.649 E4.05227
G1 X158.51 Y151.747 E4.09601
G1 X158.068 Y152.306 E4.11852
G1 X157.655 Y152.797 E4.1388
G1 X157.004 Y153.527 E4.1697
G1 X156.143 Y154.466 E4.20996
G1 X155.55 Y155.094 E4.23725
G1 X155.122 Y155.523 E4.2564
G1 X154.407 Y156.198 E4.28746
G1 X153.428 Y157.094 E4.3294
G1 X152.814 Y157.641 E4.35538
G1 X152.328 Y158.049 E4.37543
G1 X151.584 Y158.637 E4.40539
G1 X150.529 Y159.446 E4.4474
G1 X149.86 Y159.944 E4.47375
G1 X149.351 Y160.301 E4.4934
G1 X148.586 Y160.804 E4.52233
G1 X147.518 Y161.485 E4.56235
G1 X146.751 Y161.959 E4.59084
G1 X146.206 Y162.274 E4.61073
G1 X145.306 Y162.759 E4.64303
G1 X144.077 Y163.397 E4.68679
G1 X143.418 Y163.729 E4.7101
G1 X142.818 Y164.009 E4.73102
G1 X141.99 Y164.364 E4.75949
G1 X140.622 Y164.929 E4.80625
G1 X140 Y165.177 E4.82741
G1 X139.388 Y165.4 E4.84799
G1 X138.466 Y165.705 E4.87868
G1 X137.225 Y166.096 E4.91979
G1 X136.457 Y166.326 E4.94512
G1 X135.848 Y166.49 E4.96505
G1 X135.011 Y166.689 E4.99224
G1 X133.459 Y167.032 E5.04246
G1 X132.788 Y167.171 E5.06411
G1 X132.158 Y167.283 E5.08433
G1 X131.322 Y167.406 E5.11103
G1 X129.931 Y167.589 E5.15536
G1 X129.061 Y167.692 E5.18304
G1 X128.419 Y167.748 E5.2034
G1 X127.474 Y167.802 E5.23331
G1 X126.065 Y167.863 E5.27787
G1 X125.352 Y167.884 E5.30041
G1 X124.707 Y167.884 E5.32079
G1 X123.73 Y167.855 E5.35167
G1 X122.665 Y167.809 E5.38536
G1 X121.406 Y167.733 E5.42521
G1 X120.776 Y167.677 E5.44519
G1 X120.167 Y167.603 E5.46458
G1 X118.53 Y167.387 E5.51675
G1 X117.915 Y167.297 E5.53639
G1 X117.286 Y167.186 E5.55657
G1 X116.326 Y166.987 E5.58755
G1 X114.903 Y166.67 E5.63361
G1 X114.241 Y166.513 E5.65511
G1 X113.635 Y166.351 E5.67493
G1 X112.658 Y166.058 E5.70716
G1 X111.329 Y165.637 E5.75121
G1 X110.632 Y165.406 E5.77441
G1 X110.045 Y165.193 E5.79414
G1 X109.164 Y164.843 E5.8241
G1 X107.973 Y164.349 E5.86484
G1 X107.165 Y164 E5.89265
G1 X106.602 Y163.738 E5.91227
G1 X105.759 Y163.314 E5.94208
G1 X104.605 Y162.714 E5.98318
G1 X103.843 Y162.303 E6.01054
G1 X103.307 Y161.994 E6.03009
G1 X102.479 Y161.483 E6.06083
G1 X101.271 Y160.711 E6.10613
G1 X100.655 Y160.305 E6.12944
G1 X100.132 Y159.938 E6.14963
G1 X99.352 Y159.355 E6.1804
G1 X98.221 Y158.485 E6.22548
G1 X97.683 Y158.06 E6.24715
G1 X97.177 Y157.635 E6.26803
G1 X96.52 Y157.047 E6.29588
G1 X95.524 Y156.134 E6.33858
G1 X94.905 Y155.55 E6.36547
G1 X94.464 Y155.109 E6.38517
G1 X93.789 Y154.392 E6.41629
G1 X92.815 Y153.326 E6.46191
G1 X92.354 Y152.807 E6.48385
G1 X91.958 Y152.336 E6.50329
G1 X91.449 Y151.694 E6.52918
G1 X90.561 Y150.537 E6.57526
G1 X90.063 Y149.87 E6.60156
G1 X89.698 Y149.349 E6.62166
G1 X89.164 Y148.536 E6.6524
G1 X88.415 Y147.359 E6.69648
G1 X88.03 Y146.735 E6.71965
G1 X87.71 Y146.18 E6.73989
G1 X87.283 Y145.386 E6.76837
G1 X86.652 Y144.173 E6.81158
G1 X86.268 Y143.41 E6.83857
G1 X85.995 Y142.825 E6.85896
G1 X85.638 Y141.994 E6.88754
G1 X85.062 Y140.6 E6.9352
G1 X84.816 Y139.982 E6.95622
G1 X84.596 Y139.38 E6.97647
G1 X84.3 Y138.483 E7.00632
G1 X83.856 Y137.067 E7.05321
G1 X83.671 Y136.448 E7.07362
G1 X83.507 Y135.837 E7.09361
G1 X83.312 Y135.015 E7.1203
G1 X82.967 Y133.455 E7.17078
G1 X82.826 Y132.773 E7.19279
G1 X82.714 Y132.142 E7.21304
G1 X82.576 Y131.191 E7.2434
G1 X82.391 Y129.783 E7.28827
G1 X82.309 Y129.08 E7.31064
G1 X82.255 Y128.461 E7.33027
G1 X82.199 Y127.511 E7.36034
G1 X82.141 Y126.173 E7.40266
G1 X82.116 Y125.335 E7.42915
G1 X82.116 Y124.685 E7.44968
G1 X82.146 Y123.721 E7.48016
G1 X82.21 Y122.299 E7.52513
G1 X82.252 Y121.584 E7.54777
G1 X82.307 Y120.955 E7.56772
G1 X82.422 Y119.978 E7.5988
G1 X82.611 Y118.55 E7.64431
G1 X82.71 Y117.875 E7.66587
G1 X82.821 Y117.247 E7.68602
G1 X83.009 Y116.344 E7.71516
G1 X83.337 Y114.871 E7.76285
G1 X83.49 Y114.228 E7.78373
G1 X83.647 Y113.64 E7.80296
G1 X83.926 Y112.707 E7.83373
G1 X84.374 Y111.289 E7.88072
G1 X84.582 Y110.66 E7.90165
G1 X84.803 Y110.052 E7.92209
G1 X85.101 Y109.302 E7.94759
G1 X85.708 Y107.838 E7.99767
G1 X85.999 Y107.165 E8.02084
G1 X86.263 Y106.6 E8.04054
G1 X86.686 Y105.759 E8.07029
G1 X87.365 Y104.455 E8.11674
G1 X87.692 Y103.849 E8.1385
G1 X88.01 Y103.299 E8.15857
G1 X88.506 Y102.497 E8.18837
G1 X89.287 Y101.275 E8.23419
G1 X89.69 Y100.663 E8.25735
G1 X90.055 Y100.143 E8.27742
G1 X90.645 Y99.352 E8.3086
G1 X91.515 Y98.222 E8.35366
G1 X91.932 Y97.694 E8.37492
G1 X92.358 Y97.186 E8.39587
G1 X92.969 Y96.503 E8.42482
G1 X93.854 Y95.537 E8.46622
G1 X94.45 Y94.906 E8.49365
G1 X94.878 Y94.477 E8.51279
G0 F7500 X95.153 Y94.768
G1 F1500 X95.863 Y94.098 E8.54364
G1 X96.956 Y93.099 E8.59043
G1 X97.461 Y92.65 E8.61178
G1 X97.922 Y92.263 E8.6308
G1 X98.66 Y91.68 E8.66051
G1 X99.845 Y90.773 E8.70766
G1 X100.385 Y90.372 E8.72892
G1 X100.868 Y90.034 E8.74754
G1 X101.634 Y89.53 E8.77652
G1 X102.844 Y88.761 E8.82182
G1 X103.453 Y88.385 E8.84443
G1 X103.984 Y88.078 E8.86381
G1 X104.878 Y87.596 E8.8959
G1 X105.982 Y87.022 E8.93522
G1 X106.773 Y86.624 E8.9632
G1 X107.343 Y86.358 E8.98307
G1 X108.163 Y86.006 E9.01127
G1 X109.526 Y85.443 E9.05787
G1 X110.148 Y85.195 E9.07902
G1 X110.738 Y84.98 E9.09887
G1 X111.655 Y84.677 E9.12938
G1 X113.043 Y84.241 E9.17535
G1 X113.658 Y84.057 E9.19563
G1 X114.244 Y83.899 E9.21481
G1 X115.081 Y83.7 E9.242
G1 X116.483 Y83.389 E9.28737
G1 X117.308 Y83.218 E9.31399
G1 X117.916 Y83.11 E9.33351
G1 X118.861 Y82.973 E9.36368
G1 X120.264 Y82.788 E9.40839
G1 X120.959 Y82.707 E9.4305
G1 X121.56 Y82.654 E9.44956
G1 X122.372 Y82.606 E9.47526
G1 X123.835 Y82.542 E9.52154
G1 X124.669 Y82.516 E9.5479
G1 X125.3 Y82.516 E9.56784
G1 X126.243 Y82.544 E9.59765
G1 X127.692 Y82.61 E9.64348
G1 X128.395 Y82.651 E9.66573
G1 X129.009 Y82.705 E9.68521
G1 X129.934 Y82.814 E9.71463
G1 X131.378 Y83.005 E9.76066
G1 X132.038 Y83.101 E9.78173
G1 X132.655 Y83.21 E9.80153
G1 X133.611 Y83.408 E9.83238
G1 X135.034 Y83.725 E9.87844
G1 X135.665 Y83.875 E9.89894
G1 X136.242 Y84.03 E9.91781
G1 X137.23 Y84.326 E9.9504
G1 X138.545 Y84.742 E9.99398
G1 X139.242 Y84.973 E10.01718
G1 X139.808 Y85.179 E10.03621
G1 X140.683 Y85.527 E10.06597
G1 X142.021 Y86.083 E10.11175
G1 X142.673 Y86.365 E10.1342
G1 X143.216 Y86.618 E10.15312
G1 X144.057 Y87.041 E10.18287
G1 X145.36 Y87.72 E10.2293
G1 X145.967 Y88.048 E10.2511
G1 X146.488 Y88.349 E10.27011
G1 X147.287 Y88.843 E10.29979
G1 X148.505 Y89.621 E10.34546
G1 X149.117 Y90.024 E10.36861
G1 X149.618 Y90.375 E10.38794
G1 X150.404 Y90.962 E10.41893
G1 X151.526 Y91.826 E10.46368
G1 X152.057 Y92.245 E10.48505
G1 X152.547 Y92.656 E10.50526
G1 X153.21 Y93.248 E10.53335
G1 X154.206 Y94.161 E10.57604
G1 X154.82 Y94.741 E10.60273
G1 X155.245 Y95.166 E10.62172
G1 X155.916 Y95.878 E10.65263
G1 X156.889 Y96.942 E10.69819
G1 X157.355 Y97.467 E10.72037
G1 X157.736 Y97.922 E10.73912
G1 X158.22 Y98.533 E10.76375
G1 X159.223 Y99.84 E10.8158
G1 X159.623 Y100.378 E10.83699
G1 X159.967 Y100.869 E10.85593
G1 X160.47 Y101.634 E10.88486
G1 X161.239 Y102.844 E10.93016
G1 X161.615 Y103.453 E10.95277
G1 X161.922 Y103.984 E10.97215
G1 X162.404 Y104.878 E11.00425
G1 X162.978 Y105.982 E11.04356
G1 X163.368 Y106.756 E11.07095
G1 X163.639 Y107.336 E11.09118
G1 X164.002 Y108.181 E11.12024
G1 X164.507 Y109.399 E11.1619
G1 X164.809 Y110.157 E11.18768
G1 X165.024 Y110.746 E11.20749
G1 X165.309 Y111.611 E11.23627
G1 X165.77 Y113.077 E11.28482
G1 X165.945 Y113.662 E11.30412
G1 X166.103 Y114.249 E11.32333
G1 X166.291 Y115.04 E11.34902
G1 X166.641 Y116.622 E11.40021
G1 X166.781 Y117.298 E11.42202
G1 X166.887 Y117.899 E11.44131
G1 X167.028 Y118.862 E11.47206
G1 X167.213 Y120.269 E11.5169
G1 X167.292 Y120.941 E11.53828
G1 X167.346 Y121.563 E11.55801
G1 X167.402 Y122.536 E11.5888
G1 X167.459 Y123.828 E11.62966
G1 X167.484 Y124.671 E11.65631
G1 X167.485 Y125.283 E11.67565
G1 X167.456 Y126.257 E11.70644
G1 X167.391 Y127.689 E11.75173
G1 X167.349 Y128.401 E11.77427
G1 X167.295 Y129.01 E11.79359
G1 X167.185 Y129.938 E11.82311
G1 X166.995 Y131.378 E11.86901
G1 X166.899 Y132.038 E11.89008
G1 X166.79 Y132.655 E11.90988
G1 X166.592 Y133.611 E11.94073
G1 X166.311 Y134.878 E11.98173
G1 X166.121 Y135.68 E12.00778
G1 X165.97 Y136.246 E12.02629
G1 X165.693 Y137.173 E12.05686
G1 X165.246 Y138.585 E12.10365
G1 X165.038 Y139.214 E12.12459
G1 X164.825 Y139.8 E12.14429
G1 X164.468 Y140.696 E12.17476
G1 X163.987 Y141.856 E12.21444
G1 X163.636 Y142.669 E12.24242
G1 X163.388 Y143.202 E12.261
G1 X162.947 Y144.082 E12.2921
G1 X162.291 Y145.337 E12.33684
G1 X161.97 Y145.934 E12.35826
G1 X161.659 Y146.474 E12.37795
G1 X161.132 Y147.327 E12.40963
G1 X160.384 Y148.497 E12.45351
G1 X159.991 Y149.095 E12.47612
G1 X159.632 Y149.607 E12.49588
G1 X159.036 Y150.406 E12.52738
G1 X158.196 Y151.498 E12.57091
G1 X157.754 Y152.057 E12.59342
G1 X157.357 Y152.531 E12.61296
G1 X156.709 Y153.257 E12.64371
G1 X155.735 Y154.317 E12.68919
G1 X155.26 Y154.819 E12.71103
G1 X154.847 Y155.232 E12.72949
G1 X154.137 Y155.902 E12.76033
G1 X153.049 Y156.896 E12.8069
G1 X152.548 Y157.342 E12.82809
G1 X152.08 Y157.735 E12.8474
G1 X151.34 Y158.32 E12.87721
G1 X150.16 Y159.223 E12.92415
G1 X149.622 Y159.623 E12.94534
G1 X149.131 Y159.967 E12.96428
G1 X148.371 Y160.467 E12.99302
G1 X147.167 Y161.233 E13.03811
G1 X146.541 Y161.619 E13.06135
G1 X146.016 Y161.922 E13.08051
G1 X145.122 Y162.404 E13.1126
G1 X143.897 Y163.04 E13.15621
G1 X143.238 Y163.372 E13.17953
G1 X142.66 Y163.641 E13.19967
G1 X141.837 Y163.994 E13.22796
G1 X140.474 Y164.557 E13.27456
G1 X139.852 Y164.805 E13.29572
G1 X139.262 Y165.02 E13.31556
G1 X138.345 Y165.323 E13.34608
G1 X136.957 Y165.759 E13.39205
G1 X136.342 Y165.943 E13.41233
G1 X135.756 Y166.101 E13.43151
G1 X134.919 Y166.3 E13.45869
G1 X133.517 Y166.611 E13.50407
G1 X132.707 Y166.78 E13.53021
G1 X132.1 Y166.887 E13.54969
G1 X131.095 Y167.034 E13.58178
G1 X129.739 Y167.21 E13.62498
G1 X129.014 Y167.295 E13.64805
G1 X128.396 Y167.349 E13.66765
G1 X127.456 Y167.403 E13.6974
G1 X126.207 Y167.458 E13.7369
G1 X125.34 Y167.484 E13.76431
G1 X124.719 Y167.484 E13.78393
G1 X123.748 Y167.455 E13.81463
G1 X122.683 Y167.409 E13.84831
G1 X122.492 Y167.399 E13.85435
G1 X121.43 Y167.334 E13.88797
G1 X120.823 Y167.279 E13.90723
G1 X120.22 Y167.207 E13.92642
G1 X118.743 Y167.013 E13.97349
G1 X117.973 Y166.901 E13.99807
G1 X117.367 Y166.794 E14.01752
G1 X116.413 Y166.597 E14.0483
G1 X114.995 Y166.281 E14.0942
G1 X114.333 Y166.124 E14.1157
G1 X113.749 Y165.968 E14.1348
G1 X112.779 Y165.677 E14.1668
G1 X111.455 Y165.258 E14.21068
G1 X110.758 Y165.027 E14.23388
G1 X110.192 Y164.821 E14.25291
G1 X109.317 Y164.473 E14.28266
G1 X107.977 Y163.916 E14.32852
G1 X107.323 Y163.633 E14.35103
G1 X106.782 Y163.381 E14.36989
G1 X105.943 Y162.959 E14.39956
G1 X104.64 Y162.28 E14.44599
G1 X104.033 Y161.952 E14.46779
G1 X103.517 Y161.654 E14.48662
G1 X102.694 Y161.146 E14.51718
G1 X101.491 Y160.377 E14.56229
G1 X100.875 Y159.971 E14.5856
G1 X100.371 Y159.617 E14.60506
G1 X99.596 Y159.038 E14.63563
G1 X98.469 Y158.171 E14.68056
G1 X97.931 Y157.746 E14.70222
G1 X97.444 Y157.336 E14.72234
G1 X96.79 Y156.752 E14.75004
G1 X95.794 Y155.839 E14.79273
G1 X95.18 Y155.259 E14.81942
G1 X94.755 Y154.834 E14.83841
G1 X94.084 Y154.122 E14.86933
G1 X93.114 Y153.06 E14.91477
G1 X92.653 Y152.541 E14.93671
G1 X92.272 Y152.087 E14.95543
G1 X91.656 Y151.309 E14.98679
