;FLAVOR:Marlin
;TIME:5048
;Filament used: 2.75737m
;Layer height: 0.2
;MINX:80.996
;MINY:80.995
;MINZ:0.2
;MAXX:169.006
;MAXY:169.004
;MAXZ:17
;POSTPROCESSED
;Generated with Cura_SteamEngine 4.10.0
M104 S228
M105
M109 S228
M82 ;absolute extrusion mode
; Ender 3 Custom Start G-code
G92 E0 ; Reset Extruder
G28 ; Home all axes
G1 Z2.0 F3000 ; Move Z Axis up little to prevent scratching of Heat Bed
G1 X0.1 Y20 Z0.3 F5000.0 ; Move to start position
G1 X0.1 Y200.0 Z0.3 F1500.0 E15 ; Draw the first line
G1 X0.4 Y200.0 Z0.3 F5000.0 ; Move to side a little
G1 X0.4 Y20 Z0.3 F1500.0 E30 ; Draw the second line
G92 E0 ; Reset Extruder
G1 Z2.0 F3000 ; Move Z Axis up little to prevent scratching of Heat Bed
G1 X5 Y20 Z0.3 F5000.0 ; Move over to prevent blob squish
G92 E0
G92 E0
G1 F1500 E-6.5
;LAYER_COUNT:85
;LAYER:0
M117 Layer 1 of 85 Wheel Outer
M107
G0 F6000 X94.475 Y93.303 Z0.2
;TYPE:SKIRT
G1 F1500 E0
G1 F1200 X94.97 Y92.822 E0.02296
G1 X95.201 Y92.604 E0.03352
G1 X95.394 Y92.427 E0.04223
G1 X95.703 Y92.154 E0.05594
G1 X97.146 Y90.929 E0.1189
G1 X97.688 Y90.482 E0.14227
G1 X98.186 Y90.094 E0.16327
G1 X99.392 Y89.212 E0.21296
G1 X100.141 Y88.676 E0.24359
G1 X100.513 Y88.42 E0.25861
G1 X100.727 Y88.281 E0.2671
G1 X101.246 Y87.953 E0.28752
G1 X102.555 Y87.146 E0.33867
G1 X102.762 Y87.022 E0.34669
G1 X103.27 Y86.724 E0.36628
G1 X103.535 Y86.574 E0.37641
G1 X103.926 Y86.361 E0.39122
G1 X104.225 Y86.205 E0.40243
G1 X105.716 Y85.446 E0.45808
G1 X106.366 Y85.126 E0.48218
G1 X106.725 Y84.958 E0.49536
G1 X107.064 Y84.806 E0.50772
G1 X107.373 Y84.673 E0.51891
G1 X109.011 Y83.999 E0.57782
G1 X109.659 Y83.742 E0.601
G1 X110.278 Y83.517 E0.62291
G1 X111.088 Y83.252 E0.65126
G1 X111.334 Y83.175 E0.65983
G1 X112.477 Y82.806 E0.69978
G1 X113.088 Y82.628 E0.72095
G1 X114.034 Y82.383 E0.75345
G1 X115.387 Y82.054 E0.79976
G1 X115.647 Y81.994 E0.80863
G1 X116.148 Y81.885 E0.82569
G1 X116.426 Y81.829 E0.83512
G1 X116.751 Y81.767 E0.84612
G1 X117.088 Y81.708 E0.8575
G1 X118.89 Y81.423 E0.91818
G1 X119.593 Y81.321 E0.94181
G1 X119.936 Y81.277 E0.95331
G1 X120.219 Y81.245 E0.96278
G1 X120.519 Y81.215 E0.97281
G1 X120.985 Y81.176 E0.98837
G1 X122.427 Y81.067 E1.03646
G1 X123.199 Y81.02 E1.06219
G1 X123.81 Y81 E1.08252
G1 X124.777 Y80.995 E1.11468
G1 X125.5 Y81.002 E1.13873
G1 X125.751 Y80.999 E1.14708
G1 X126.27 Y81.002 E1.16434
G1 X126.59 Y81.009 E1.17499
G1 X126.954 Y81.027 E1.18711
G1 X127.551 Y81.066 E1.20701
G1 X129.132 Y81.186 E1.25974
G1 X129.434 Y81.213 E1.26983
G1 X129.646 Y81.235 E1.27692
G1 X129.993 Y81.276 E1.28854
G1 X131.324 Y81.457 E1.33322
G1 X131.563 Y81.492 E1.34125
G1 X132.704 Y81.674 E1.37968
G1 X133.345 Y81.785 E1.40132
G1 X133.839 Y81.88 E1.41805
G1 X134.144 Y81.945 E1.42842
G1 X134.501 Y82.027 E1.4406
G1 X136.01 Y82.392 E1.49224
G1 X136.891 Y82.62 E1.52251
G1 X137.457 Y82.784 E1.54211
G1 X138.951 Y83.262 E1.59428
G1 X139.774 Y83.537 E1.62314
G1 X140.112 Y83.656 E1.63506
G1 X140.29 Y83.722 E1.64137
G1 X140.557 Y83.825 E1.65089
G1 X140.93 Y83.975 E1.66426
G1 X142.489 Y84.615 E1.72031
G1 X142.756 Y84.729 E1.72997
G1 X142.953 Y84.816 E1.73713
G1 X143.293 Y84.973 E1.74959
G1 X144.44 Y85.527 E1.79196
G1 X144.654 Y85.633 E1.7999
G1 X145.686 Y86.16 E1.83844
G1 X146.367 Y86.519 E1.86404
G1 X146.883 Y86.81 E1.88375
G1 X147.529 Y87.197 E1.90879
G1 X148.774 Y87.966 E1.95746
G1 X149.348 Y88.33 E1.98007
G1 X149.874 Y88.686 E2.0012
G1 X150.952 Y89.461 E2.04535
G1 X151.871 Y90.14 E2.08336
G1 X152.179 Y90.376 E2.09626
G1 X152.412 Y90.561 E2.10616
G1 X152.69 Y90.789 E2.11812
G1 X154.111 Y91.995 E2.18011
G1 X154.305 Y92.164 E2.18867
G1 X154.668 Y92.487 E2.20483
G1 X154.902 Y92.702 E2.2154
G1 X155.182 Y92.966 E2.2282
G1 X155.411 Y93.188 E2.2388
G1 X156.698 Y94.475 E2.29934
G1 X157.174 Y94.965 E2.32206
G1 X157.388 Y95.192 E2.33244
G1 X157.6 Y95.423 E2.34287
G1 X157.884 Y95.745 E2.35715
G1 X159.084 Y97.161 E2.41888
G1 X159.518 Y97.688 E2.44159
G1 X159.897 Y98.175 E2.46211
G1 X160.598 Y99.133 E2.50159
G1 X160.906 Y99.565 E2.51924
G1 X161.143 Y99.889 E2.53259
G1 X161.338 Y100.163 E2.54378
G1 X161.54 Y100.457 E2.55564
G1 X161.718 Y100.727 E2.5664
G1 X162.046 Y101.246 E2.58682
G1 X162.853 Y102.555 E2.63796
G1 X162.977 Y102.762 E2.64599
G1 X163.275 Y103.27 E2.66558
G1 X163.425 Y103.535 E2.67571
G1 X163.638 Y103.926 E2.69052
G1 X163.794 Y104.225 E2.70173
G1 X164.554 Y105.718 E2.75745
G1 X164.772 Y106.161 E2.77387
G1 X164.932 Y106.501 E2.78637
G1 X165.286 Y107.287 E2.81504
G1 X165.428 Y107.616 E2.82696
G1 X166.006 Y109.023 E2.87755
G1 X166.257 Y109.658 E2.90026
G1 X166.47 Y110.246 E2.92107
G1 X166.786 Y111.202 E2.95455
G1 X167.207 Y112.518 E3.00051
G1 X167.376 Y113.104 E3.02079
G1 X167.617 Y114.033 E3.05272
G1 X167.946 Y115.386 E3.09903
G1 X168.006 Y115.646 E3.1079
G1 X168.115 Y116.147 E3.12496
G1 X168.172 Y116.431 E3.13459
G1 X168.23 Y116.736 E3.14492
G1 X168.288 Y117.065 E3.15603
G1 X168.584 Y118.936 E3.21903
G1 X168.679 Y119.596 E3.24121
G1 X168.719 Y119.905 E3.25157
G1 X168.751 Y120.183 E3.26088
G1 X168.783 Y120.508 E3.27174
G1 X168.823 Y120.983 E3.2876
G1 X168.932 Y122.425 E3.33569
G1 X168.979 Y123.197 E3.36142
G1 X168.999 Y123.807 E3.38172
G1 X169.006 Y125.291 E3.43108
G1 X168.998 Y126.232 E3.46238
G1 X168.985 Y126.674 E3.47708
G1 X168.965 Y127.084 E3.49074
G1 X168.946 Y127.382 E3.50067
G1 X168.813 Y129.132 E3.55904
G1 X168.789 Y129.408 E3.56825
G1 X168.768 Y129.615 E3.57518
G1 X168.723 Y129.991 E3.58777
G1 X168.539 Y131.341 E3.63309
G1 X168.506 Y131.569 E3.64075
G1 X168.326 Y132.702 E3.67891
G1 X168.215 Y133.345 E3.70061
G1 X168.121 Y133.832 E3.7171
G1 X168.059 Y134.124 E3.72703
G1 X167.954 Y134.582 E3.74266
G1 X167.594 Y136.063 E3.79335
G1 X167.392 Y136.847 E3.82028
G1 X167.221 Y137.441 E3.84084
G1 X166.732 Y138.969 E3.8942
G1 X166.457 Y139.788 E3.92294
G1 X166.329 Y140.149 E3.93567
G1 X166.188 Y140.518 E3.94881
G1 X166.027 Y140.922 E3.96328
G1 X165.402 Y142.447 E4.01809
G1 X165.232 Y142.844 E4.03246
G1 X165.138 Y143.055 E4.04014
G1 X164.986 Y143.381 E4.0521
G1 X164.399 Y144.588 E4.09675
G1 X163.91 Y145.548 E4.13258
G1 X163.483 Y146.359 E4.16306
G1 X163.179 Y146.9 E4.1837
G1 X162.805 Y147.522 E4.20784
G1 X162.033 Y148.773 E4.25674
G1 X161.669 Y149.347 E4.27934
G1 X161.316 Y149.869 E4.3003
G1 X160.514 Y150.985 E4.34601
G1 X159.852 Y151.88 E4.38304
G1 X159.619 Y152.184 E4.39578
G1 X159.433 Y152.418 E4.40572
G1 X159.21 Y152.69 E4.41742
G1 X158.012 Y154.102 E4.47901
G1 X157.834 Y154.305 E4.48799
G1 X157.505 Y154.674 E4.50443
G1 X157.298 Y154.901 E4.51465
G1 X157.033 Y155.182 E4.52749
G1 X156.811 Y155.41 E4.53808
G1 X155.523 Y156.697 E4.59864
G1 X155.034 Y157.172 E4.62131
G1 X154.85 Y157.347 E4.62976
G1 X154.657 Y157.526 E4.63851
G1 X154.298 Y157.845 E4.65449
G1 X152.862 Y159.063 E4.71711
G1 X152.327 Y159.505 E4.74019
G1 X151.832 Y159.891 E4.76107
G1 X150.582 Y160.807 E4.81262
G1 X149.834 Y161.339 E4.84314
G1 X149.519 Y161.556 E4.85587
G1 X149.261 Y161.725 E4.86613
G1 X148.789 Y162.023 E4.88469
G1 X147.444 Y162.853 E4.93726
G1 X147.226 Y162.984 E4.94572
G1 X146.724 Y163.278 E4.96507
G1 X146.483 Y163.415 E4.97429
G1 X146.074 Y163.638 E4.98978
G1 X145.775 Y163.794 E5.001
G1 X144.284 Y164.553 E5.05664
G1 X143.634 Y164.873 E5.08074
G1 X143.318 Y165.022 E5.09236
G1 X143.049 Y165.144 E5.10219
G1 X142.791 Y165.257 E5.11155
G1 X142.402 Y165.421 E5.12559
G1 X140.951 Y166.015 E5.17774
G1 X140.342 Y166.255 E5.19951
G1 X139.775 Y166.461 E5.21958
G1 X139.046 Y166.703 E5.24513
G1 X138.754 Y166.795 E5.25531
G1 X137.521 Y167.194 E5.29841
G1 X136.897 Y167.375 E5.32002
G1 X135.967 Y167.615 E5.35197
G1 X134.615 Y167.944 E5.39825
G1 X134.368 Y168.001 E5.40668
G1 X133.866 Y168.111 E5.42377
G1 X133.553 Y168.175 E5.4344
G1 X133.23 Y168.236 E5.44533
G1 X132.913 Y168.291 E5.45603
G1 X131.111 Y168.576 E5.51671
G1 X130.408 Y168.678 E5.54034
G1 X130.016 Y168.728 E5.55348
G1 X129.675 Y168.765 E5.56489
G1 X129.378 Y168.793 E5.57481
G1 X128.889 Y168.833 E5.59113
G1 X127.715 Y168.922 E5.63029
G1 X126.816 Y168.978 E5.66025
G1 X126.195 Y168.999 E5.68091
G1 X125.073 Y169.004 E5.71823
G1 X124.042 Y168.996 E5.75252
G1 X123.371 Y168.979 E5.77485
G1 X122.292 Y168.919 E5.81079
G1 X122.078 Y168.905 E5.81793
G1 X120.855 Y168.813 E5.85872
G1 X120.516 Y168.782 E5.87004
G1 X120.328 Y168.762 E5.87633
G1 X120.001 Y168.722 E5.88729
G1 X118.448 Y168.508 E5.93943
G1 X117.296 Y168.325 E5.97822
G1 X116.655 Y168.214 E5.99986
G1 X116.161 Y168.119 E6.01659
G1 X115.856 Y168.054 E6.02696
G1 X115.499 Y167.972 E6.03915
G1 X113.99 Y167.607 E6.09078
G1 X113.109 Y167.379 E6.12105
G1 X112.542 Y167.215 E6.14068
G1 X111.188 Y166.783 E6.18795
G1 X110.214 Y166.457 E6.22211
G1 X109.85 Y166.328 E6.23496
G1 X109.457 Y166.178 E6.24895
G1 X109.066 Y166.021 E6.26296
G1 X107.593 Y165.418 E6.3159
G1 X107.207 Y165.254 E6.32985
G1 X107.044 Y165.182 E6.33578
G1 X106.705 Y165.025 E6.3482
G1 X105.56 Y164.472 E6.3905
G1 X105.346 Y164.366 E6.39844
G1 X104.304 Y163.833 E6.43737
G1 X103.619 Y163.471 E6.46314
G1 X103.102 Y163.18 E6.48287
G1 X102.488 Y162.811 E6.50669
G1 X101.24 Y162.04 E6.55549
G1 X100.631 Y161.653 E6.57948
G1 X100.112 Y161.302 E6.60032
G1 X98.931 Y160.452 E6.64872
G1 X98.129 Y159.86 E6.68187
G1 X97.816 Y159.619 E6.69501
G1 X97.582 Y159.433 E6.70496
G1 X97.31 Y159.209 E6.71667
G1 X95.89 Y158.004 E6.77862
G1 X95.687 Y157.827 E6.78758
G1 X95.318 Y157.498 E6.80402
G1 X95.096 Y157.296 E6.814
G1 X94.821 Y157.037 E6.82657
G1 X94.588 Y156.81 E6.83738
G1 X93.302 Y155.524 E6.89787
G1 X92.826 Y155.034 E6.9206
G1 X92.612 Y154.807 E6.93097
G1 X92.4 Y154.576 E6.9414
G1 X92.115 Y154.253 E6.95573
G1 X90.914 Y152.836 E7.01751
G1 X90.483 Y152.313 E7.04005
G1 X90.101 Y151.821 E7.06077
G1 X89.367 Y150.818 E7.1021
G1 X89.077 Y150.411 E7.11873
G1 X88.977 Y150.276 E7.12431
G1 X88.795 Y150.023 E7.13468
G1 X88.571 Y149.704 E7.14764
G1 X88.278 Y149.265 E7.1652
G1 X87.954 Y148.753 E7.18535
G1 X87.147 Y147.444 E7.2365
G1 X87.026 Y147.243 E7.2443
G1 X86.727 Y146.734 E7.26394
G1 X86.564 Y146.446 E7.27494
G1 X86.362 Y146.073 E7.28905
G1 X86.206 Y145.774 E7.30027
G1 X85.446 Y144.281 E7.35599
G1 X85.228 Y143.838 E7.37241
G1 X85.068 Y143.498 E7.38491
G1 X84.714 Y142.712 E7.41358
G1 X84.572 Y142.383 E7.4255
G1 X83.997 Y140.983 E7.47584
G1 X83.749 Y140.357 E7.49823
G1 X83.529 Y139.749 E7.51974
G1 X83.275 Y138.978 E7.54674
G1 X82.798 Y137.496 E7.59852
G1 X82.622 Y136.892 E7.61944
G1 X82.429 Y136.149 E7.64497
G1 X82.059 Y134.627 E7.69707
G1 X82.003 Y134.388 E7.70524
G1 X81.889 Y133.868 E7.72294
G1 X81.828 Y133.567 E7.73316
G1 X81.733 Y133.058 E7.75038
G1 X81.682 Y132.756 E7.76056
G1 X81.439 Y131.215 E7.81245
G1 X81.32 Y130.388 E7.84024
G1 X81.278 Y130.062 E7.85117
G1 X81.24 Y129.726 E7.86242
G1 X81.202 Y129.332 E7.87559
G1 X81.076 Y127.69 E7.93036
G1 X81.022 Y126.82 E7.95935
G1 X81.001 Y126.203 E7.97989
G1 X80.996 Y125.228 E8.01231
G1 X81.003 Y124.504 E8.0364
G1 X81 Y124.249 E8.04488
G1 X81.003 Y123.73 E8.06214
G1 X81.01 Y123.409 E8.07282
G1 X81.028 Y123.035 E8.08527
G1 X81.07 Y122.41 E8.10611
G1 X81.187 Y120.868 E8.15754
G1 X81.214 Y120.56 E8.16782
G1 X81.234 Y120.368 E8.17425
G1 X81.276 Y120.021 E8.18587
G1 X81.467 Y118.621 E8.23287
G1 X81.499 Y118.401 E8.24026
G1 X81.665 Y117.352 E8.27558
G1 X81.791 Y116.622 E8.30022
G1 X81.847 Y116.322 E8.31037
G1 X81.877 Y116.173 E8.31543
G1 X81.935 Y115.906 E8.32452
G1 X82.046 Y115.421 E8.34107
G1 X82.437 Y113.813 E8.39611
G1 X82.616 Y113.123 E8.41981
G1 X82.784 Y112.541 E8.43996
G1 X83.269 Y111.026 E8.49287
G1 X83.546 Y110.202 E8.52178
G1 X83.671 Y109.851 E8.53418
G1 X83.821 Y109.457 E8.5482
G1 X83.977 Y109.068 E8.56214
G1 X84.598 Y107.552 E8.61663
G1 X84.768 Y107.155 E8.63099
G1 X84.862 Y106.944 E8.63867
G1 X85.014 Y106.618 E8.65064
G1 X85.601 Y105.411 E8.69528
G1 X86.09 Y104.451 E8.73111
G1 X86.517 Y103.64 E8.7616
G1 X86.813 Y103.113 E8.7817
G1 X87.198 Y102.471 E8.8066
G1 X87.967 Y101.226 E8.85527
G1 X88.331 Y100.652 E8.87788
G1 X88.688 Y100.125 E8.89905
G1 X89.502 Y98.993 E8.94542
G1 X90.151 Y98.113 E8.98179
G1 X90.381 Y97.815 E8.99431
G1 X90.567 Y97.581 E9.00425
G1 X90.79 Y97.309 E9.01595
G1 X91.988 Y95.897 E9.07754
G1 X92.166 Y95.694 E9.08652
G1 X92.495 Y95.325 E9.10296
G1 X92.702 Y95.098 E9.11318
G1 X92.967 Y94.817 E9.12603
G1 X93.189 Y94.589 E9.13661
G1 X94.475 Y93.303 E9.1971
G0 F6000 X94.754 Y93.59
G1 F1200 X95.249 Y93.109 E9.22006
G1 X95.471 Y92.899 E9.23022
G1 X95.664 Y92.722 E9.23893
G1 X95.963 Y92.459 E9.25217
G1 X97.401 Y91.237 E9.31494
G1 X97.943 Y90.79 E9.33831
G1 X98.423 Y90.417 E9.35852
G1 X99.625 Y89.537 E9.40807
G1 X100.374 Y89.001 E9.43871
G1 X100.735 Y88.753 E9.45327
G1 X100.941 Y88.619 E9.46145
G1 X101.456 Y88.294 E9.4817
G1 X102.765 Y87.487 E9.53285
G1 X102.965 Y87.367 E9.54061
G1 X103.473 Y87.069 E9.56019
G1 X103.728 Y86.924 E9.56995
G1 X104.112 Y86.715 E9.58449
G1 X104.406 Y86.562 E9.59551
G1 X105.893 Y85.805 E9.65101
G1 X106.543 Y85.485 E9.67511
G1 X106.888 Y85.323 E9.68779
G1 X107.227 Y85.171 E9.70014
G1 X107.525 Y85.043 E9.71093
G1 X109.158 Y84.371 E9.76966
G1 X109.806 Y84.114 E9.79285
G1 X110.403 Y83.897 E9.81398
G1 X111.208 Y83.634 E9.84214
G1 X111.454 Y83.557 E9.85072
G1 X112.6 Y83.187 E9.89077
G1 X113.189 Y83.015 E9.91118
G1 X114.128 Y82.772 E9.94344
G1 X115.481 Y82.443 E9.98975
G1 X115.733 Y82.385 E9.99835
G1 X116.234 Y82.276 E10.0154
G1 X116.501 Y82.222 E10.02447
G1 X116.826 Y82.16 E10.03547
G1 X117.15 Y82.103 E10.04641
G1 X118.947 Y81.819 E10.10692
G1 X119.65 Y81.717 E10.13055
G1 X119.981 Y81.674 E10.14165
G1 X120.264 Y81.642 E10.15112
G1 X120.553 Y81.613 E10.16078
G1 X121.015 Y81.574 E10.1762
G1 X122.292 Y81.477 E10.2188
G1 X123.223 Y81.42 E10.24982
G1 X123.812 Y81.4 E10.26942
G1 X124.779 Y81.395 E10.30159
G1 X125.501 Y81.402 E10.3256
G1 X125.756 Y81.399 E10.33408
G1 X126.266 Y81.402 E10.35105
G1 X126.578 Y81.409 E10.36143
G1 X126.928 Y81.426 E10.37308
G1 X127.52 Y81.464 E10.39281
G1 X129.101 Y81.584 E10.44555
G1 X129.605 Y81.633 E10.46239
G1 X129.939 Y81.673 E10.47358
G1 X131.27 Y81.854 E10.51825
G1 X131.5 Y81.887 E10.52598
G1 X132.636 Y82.068 E10.56424
G1 X133.277 Y82.179 E10.58588
G1 X133.53 Y82.226 E10.59444
G1 X133.762 Y82.272 E10.60231
G1 X134.055 Y82.335 E10.61227
G1 X134.407 Y82.416 E10.62429
G1 X136.1 Y82.827 E10.68223
G1 X136.79 Y83.007 E10.70595
G1 X137.336 Y83.165 E10.72485
G1 X138.824 Y83.641 E10.77682
G1 X139.647 Y83.916 E10.80568
G1 X139.973 Y84.031 E10.81717
G1 X140.151 Y84.097 E10.82349
G1 X140.409 Y84.197 E10.83269
G1 X140.779 Y84.345 E10.84595
G1 X142.338 Y84.985 E10.902
G1 X142.594 Y85.094 E10.91125
G1 X142.791 Y85.181 E10.91841
G1 X143.119 Y85.333 E10.93044
G1 X144.266 Y85.887 E10.9728
G1 X144.472 Y85.989 E10.98045
G1 X145.499 Y86.514 E11.01881
G1 X146.18 Y86.873 E11.04442
G1 X146.678 Y87.153 E11.06342
G1 X147.319 Y87.538 E11.08829
G1 X148.56 Y88.304 E11.1368
G1 X149.134 Y88.668 E11.1594
G1 X149.641 Y89.011 E11.17976
G1 X150.715 Y89.783 E11.22375
G1 X151.63 Y90.459 E11.26159
G1 X151.93 Y90.69 E11.27418
G1 X152.163 Y90.875 E11.28408
G1 X152.431 Y91.094 E11.29559
G1 X153.852 Y92.3 E11.35758
G1 X154.039 Y92.463 E11.36583
G1 X154.402 Y92.786 E11.38199
G1 X154.628 Y92.993 E11.39219
G1 X154.908 Y93.257 E11.40499
G1 X155.128 Y93.47 E11.41517
G1 X156.411 Y94.754 E11.47554
G1 X156.887 Y95.244 E11.49826
G1 X157.094 Y95.463 E11.50829
G1 X157.306 Y95.694 E11.51871
G1 X157.579 Y96.003 E11.53243
G1 X158.676 Y97.296 E11.58883
G1 X159.209 Y97.943 E11.61671
G1 X159.574 Y98.412 E11.63647
G1 X160.272 Y99.365 E11.67576
G1 X160.567 Y99.779 E11.69267
G1 X160.817 Y100.121 E11.70676
G1 X161.012 Y100.395 E11.71795
G1 X161.209 Y100.681 E11.7295
G1 X161.38 Y100.941 E11.73985
G1 X161.705 Y101.456 E11.7601
G1 X162.512 Y102.765 E11.81125
G1 X162.632 Y102.965 E11.81901
G1 X162.93 Y103.473 E11.83859
G1 X163.075 Y103.728 E11.84835
G1 X163.284 Y104.112 E11.86289
G1 X163.437 Y104.406 E11.87392
G1 X164.195 Y105.895 E11.92949
G1 X164.413 Y106.338 E11.94591
G1 X164.567 Y106.665 E11.95793
G1 X164.921 Y107.451 E11.9866
G1 X165.058 Y107.768 E11.99809
G1 X165.634 Y109.17 E12.0485
G1 X165.885 Y109.805 E12.07121
G1 X166.09 Y110.371 E12.09123
G1 X166.405 Y111.324 E12.12462
G1 X166.826 Y112.64 E12.17057
G1 X166.989 Y113.204 E12.1901
G1 X167.228 Y114.127 E12.22181
