;FLAVOR:Marlin
;TIME:3820
;Filament used: 2.74249m
;Layer height: 0.2
;MINX:80.989
;MINY:80.989
;MINZ:0.2
;MAXX:169.011
;MAXY:169.011
;MAXZ:17
;POSTPROCESSED
;Generated with Cura_SteamEngine 4.10.0
M104 S228
M105
M109 S228
M82 ;absolute extrusion mode
; Ender 3 Custom Start G-code
G92 E0 ; Reset Extruder
G28 ; Home all axes
G1 Z2.0 F3000 ; Move Z Axis up little to prevent scratching of Heat Bed
G1 X0.1 Y20 Z0.3 F5000.0 ; Move to start position
G1 X0.1 Y200.0 Z0.3 F1500.0 E15 ; Draw the first line
G1 X0.4 Y200.0 Z0.3 F5000.0 ; Move to side a little
G1 X0.4 Y20 Z0.3 F1500.0 E30 ; Draw the second line
G92 E0 ; Reset Extruder
G1 Z2.0 F3000 ; Move Z Axis up little to prevent scratching of Heat Bed
G1 X5 Y20 Z0.3 F5000.0 ; Move over to prevent blob squish
G92 E0
G92 E0
G1 F1500 E-6.5
;LAYER_COUNT:85
;LAYER:0
M117 Layer 1 of 85 Wheel Outer2
M107
G0 F6000 X94.077 Y93.68 Z0.2
;TYPE:SKIRT
G1 F1500 E0
G1 F1200 X94.567 Y93.217 E0.02242
G1 X95.863 Y92.028 E0.08092
G1 X96.432 Y91.521 E0.10627
G1 X96.905 Y91.122 E0.12685
G1 X97.554 Y90.607 E0.15441
G1 X98.814 Y89.64 E0.20723
G1 X99.457 Y89.16 E0.23392
G1 X99.973 Y88.798 E0.25489
G1 X100.832 Y88.233 E0.28908
G1 X101.988 Y87.497 E0.33466
G1 X102.684 Y87.067 E0.36187
G1 X103.233 Y86.749 E0.38297
G1 X104.101 Y86.282 E0.41576
G1 X105.511 Y85.548 E0.46863
G1 X106.056 Y85.273 E0.48893
G1 X106.649 Y84.996 E0.5107
G1 X107.519 Y84.622 E0.5422
G1 X109.004 Y84.008 E0.59564
G1 X109.593 Y83.773 E0.61674
G1 X110.199 Y83.552 E0.63819
G1 X111.136 Y83.242 E0.67102
G1 X112.596 Y82.782 E0.72193
G1 X113.3 Y82.572 E0.74636
G1 X113.895 Y82.412 E0.76686
G1 X114.617 Y82.24 E0.79154
G1 X116.367 Y81.851 E0.85117
G1 X116.995 Y81.721 E0.8725
G1 X117.622 Y81.61 E0.89368
G1 X118.43 Y81.491 E0.92084
G1 X120.123 Y81.269 E0.97763
G1 X120.831 Y81.187 E1.00134
G1 X121.443 Y81.133 E1.02177
G1 X122.266 Y81.084 E1.04919
G1 X123.941 Y81.011 E1.10496
G1 X124.656 Y80.99 E1.12875
G1 X125.29 Y80.989 E1.14984
G1 X126.069 Y81.011 E1.17576
G1 X127.781 Y81.086 E1.23275
G1 X128.49 Y81.127 E1.25637
G1 X129.118 Y81.182 E1.27734
G1 X130.057 Y81.292 E1.30878
G1 X131.593 Y81.494 E1.36031
G1 X132.333 Y81.602 E1.38519
G1 X132.941 Y81.709 E1.40572
G1 X133.59 Y81.842 E1.42775
G1 X135.227 Y82.204 E1.48351
G1 X136.062 Y82.402 E1.51206
G1 X136.645 Y82.557 E1.53212
G1 X137.596 Y82.841 E1.56513
G1 X139.042 Y83.299 E1.61558
G1 X139.723 Y83.524 E1.63944
G1 X140.323 Y83.742 E1.66067
G1 X141.2 Y84.091 E1.69206
G1 X142.664 Y84.698 E1.74477
G1 X143.321 Y84.982 E1.76858
G1 X143.858 Y85.232 E1.78828
G1 X144.484 Y85.545 E1.81156
G1 X145.979 Y86.323 E1.86761
G1 X146.681 Y86.7 E1.89412
G1 X147.236 Y87.019 E1.91541
G1 X147.943 Y87.454 E1.94302
G1 X149.384 Y88.372 E1.99984
G1 X149.952 Y88.745 E2.02245
G1 X150.473 Y89.11 E2.0436
G1 X151.235 Y89.677 E2.07519
G1 X152.368 Y90.546 E2.12269
G1 X153.009 Y91.051 E2.14983
G1 X153.513 Y91.473 E2.17169
G1 X154.239 Y92.12 E2.20403
G1 X155.354 Y93.143 E2.25436
G1 X155.874 Y93.632 E2.27811
G1 X156.325 Y94.082 E2.2993
G1 X156.781 Y94.565 E2.32139
G1 X158.051 Y95.95 E2.38389
G1 X158.475 Y96.426 E2.40509
G1 X158.878 Y96.905 E2.42591
G1 X159.393 Y97.554 E2.45347
G1 X160.36 Y98.814 E2.50629
G1 X160.84 Y99.457 E2.53298
G1 X161.202 Y99.973 E2.55395
G1 X161.767 Y100.832 E2.58814
G1 X162.503 Y101.988 E2.63372
G1 X162.933 Y102.684 E2.66093
G1 X163.251 Y103.233 E2.68204
G1 X163.718 Y104.101 E2.71482
G1 X164.452 Y105.511 E2.76769
G1 X164.727 Y106.056 E2.78799
G1 X165.004 Y106.649 E2.80976
G1 X165.378 Y107.519 E2.84126
G1 X165.992 Y109.004 E2.8947
G1 X166.227 Y109.593 E2.9158
G1 X166.448 Y110.199 E2.93725
G1 X166.758 Y111.136 E2.97008
G1 X167.217 Y112.592 E3.02085
G1 X167.427 Y113.295 E3.04526
G1 X167.588 Y113.897 E3.06598
G1 X167.797 Y114.78 E3.09616
G1 X168.149 Y116.367 E3.15023
G1 X168.279 Y116.995 E3.17156
G1 X168.39 Y117.622 E3.19274
G1 X168.509 Y118.43 E3.2199
G1 X168.731 Y120.12 E3.27659
G1 X168.813 Y120.826 E3.30023
G1 X168.867 Y121.443 E3.32083
G1 X168.916 Y122.268 E3.34832
G1 X168.989 Y123.941 E3.40402
G1 X169.01 Y124.655 E3.42778
G1 X169.011 Y125.288 E3.44883
G1 X168.989 Y126.068 E3.47478
G1 X168.914 Y127.781 E3.53181
G1 X168.873 Y128.49 E3.55543
G1 X168.818 Y129.118 E3.5764
G1 X168.708 Y130.057 E3.60785
G1 X168.506 Y131.593 E3.65937
G1 X168.398 Y132.333 E3.68425
G1 X168.291 Y132.941 E3.70478
G1 X168.158 Y133.59 E3.72681
G1 X167.796 Y135.227 E3.78258
G1 X167.598 Y136.062 E3.81112
G1 X167.443 Y136.645 E3.83118
G1 X167.159 Y137.596 E3.86419
G1 X166.701 Y139.042 E3.91464
G1 X166.476 Y139.723 E3.9385
G1 X166.258 Y140.323 E3.95973
G1 X165.909 Y141.201 E3.99115
G1 X165.39 Y142.455 E4.03629
G1 X165.023 Y143.308 E4.06718
G1 X164.768 Y143.858 E4.08734
G1 X164.456 Y144.481 E4.11052
G1 X163.636 Y146.057 E4.16961
G1 X163.306 Y146.672 E4.19282
G1 X162.979 Y147.239 E4.21459
G1 X162.452 Y148.092 E4.24794
G1 X161.628 Y149.384 E4.29891
G1 X161.255 Y149.952 E4.32151
G1 X160.89 Y150.473 E4.34266
G1 X160.323 Y151.235 E4.37426
G1 X159.454 Y152.368 E4.42175
G1 X158.949 Y153.009 E4.44889
G1 X158.527 Y153.513 E4.47075
G1 X157.88 Y154.239 E4.5031
G1 X156.957 Y155.247 E4.54855
G1 X156.358 Y155.884 E4.57764
G1 X155.918 Y156.326 E4.59838
G1 X155.436 Y156.781 E4.62043
G1 X154.034 Y158.066 E4.68368
G1 X153.571 Y158.478 E4.70429
G1 X153.092 Y158.88 E4.72509
G1 X152.3 Y159.506 E4.75867
G1 X151.064 Y160.452 E4.81044
G1 X150.543 Y160.84 E4.83204
G1 X150.027 Y161.202 E4.85301
G1 X149.168 Y161.767 E4.8872
G1 X148.012 Y162.503 E4.93278
G1 X147.316 Y162.933 E4.96
G1 X146.767 Y163.251 E4.9811
G1 X145.899 Y163.718 E5.01388
G1 X144.489 Y164.452 E5.06675
G1 X143.944 Y164.727 E5.08705
G1 X143.351 Y165.004 E5.10882
G1 X142.481 Y165.378 E5.14032
G1 X140.996 Y165.992 E5.19377
G1 X140.407 Y166.227 E5.21486
G1 X139.801 Y166.448 E5.23631
G1 X138.864 Y166.758 E5.26914
G1 X137.404 Y167.218 E5.32005
G1 X136.7 Y167.428 E5.34449
G1 X136.105 Y167.588 E5.36498
G1 X135.383 Y167.76 E5.38967
G1 X133.633 Y168.149 E5.44929
G1 X133.005 Y168.279 E5.47062
G1 X132.378 Y168.39 E5.4918
G1 X131.57 Y168.509 E5.51896
G1 X129.877 Y168.731 E5.57576
G1 X129.169 Y168.813 E5.59946
G1 X128.557 Y168.867 E5.6199
G1 X127.734 Y168.916 E5.64732
G1 X126.059 Y168.989 E5.70308
G1 X125.344 Y169.01 E5.72687
G1 X124.71 Y169.011 E5.74796
G1 X123.931 Y168.989 E5.77388
G1 X122.219 Y168.914 E5.83087
G1 X121.51 Y168.873 E5.8545
G1 X120.882 Y168.818 E5.87546
G1 X119.943 Y168.708 E5.90691
G1 X118.407 Y168.506 E5.95843
G1 X117.667 Y168.398 E5.98331
G1 X117.059 Y168.291 E6.00384
G1 X116.41 Y168.158 E6.02588
G1 X114.773 Y167.796 E6.08164
G1 X113.938 Y167.598 E6.11018
G1 X113.355 Y167.443 E6.13024
G1 X112.404 Y167.159 E6.16325
G1 X110.958 Y166.701 E6.2137
G1 X110.277 Y166.476 E6.23756
G1 X109.677 Y166.258 E6.25879
G1 X108.796 Y165.908 E6.29032
G1 X107.49 Y165.367 E6.33734
G1 X106.683 Y165.019 E6.36657
G1 X106.14 Y164.767 E6.38648
G1 X105.516 Y164.455 E6.40968
G1 X104.021 Y163.677 E6.46574
G1 X103.319 Y163.3 E6.49224
G1 X102.764 Y162.981 E6.51353
G1 X102.057 Y162.546 E6.54114
G1 X100.616 Y161.628 E6.59797
G1 X100.048 Y161.255 E6.62057
G1 X99.527 Y160.89 E6.64173
G1 X98.765 Y160.323 E6.67332
G1 X97.514 Y159.362 E6.72578
G1 X96.988 Y158.947 E6.74807
G1 X96.486 Y158.527 E6.76984
G1 X95.761 Y157.88 E6.80216
G1 X94.753 Y156.957 E6.84762
G1 X94.116 Y156.358 E6.8767
G1 X93.674 Y155.918 E6.89744
G1 X93.219 Y155.436 E6.91949
G1 X91.935 Y154.035 E6.98269
G1 X91.522 Y153.571 E7.00336
G1 X91.119 Y153.091 E7.0242
G1 X90.492 Y152.298 E7.05782
G1 X89.55 Y151.067 E7.10938
G1 X89.161 Y150.545 E7.13103
G1 X88.795 Y150.023 E7.15224
G1 X88.233 Y149.168 E7.18627
G1 X87.417 Y147.885 E7.23684
G1 X87.068 Y147.32 E7.25893
G1 X86.746 Y146.761 E7.28038
G1 X86.282 Y145.899 E7.31294
G1 X85.548 Y144.489 E7.36581
G1 X85.273 Y143.944 E7.38612
G1 X84.995 Y143.35 E7.40793
G1 X84.608 Y142.45 E7.44052
G1 X84.009 Y140.999 E7.49273
G1 X83.773 Y140.408 E7.51389
G1 X83.549 Y139.795 E7.5356
G1 X83.291 Y139.018 E7.56283
G1 X82.782 Y137.404 E7.61912
G1 X82.572 Y136.7 E7.64355
G1 X82.412 Y136.105 E7.66405
G1 X82.24 Y135.383 E7.68873
G1 X81.851 Y133.633 E7.74836
G1 X81.721 Y133.005 E7.76969
G1 X81.61 Y132.378 E7.79087
G1 X81.491 Y131.57 E7.81803
G1 X81.269 Y129.877 E7.87482
G1 X81.187 Y129.169 E7.89853
G1 X81.133 Y128.557 E7.91896
G1 X81.084 Y127.734 E7.94638
G1 X81.011 Y126.059 E8.00215
G1 X80.99 Y125.345 E8.02591
G1 X80.989 Y124.712 E8.04696
G1 X81.011 Y123.932 E8.07291
G1 X81.086 Y122.219 E8.12994
G1 X81.127 Y121.51 E8.15356
G1 X81.182 Y120.882 E8.17453
G1 X81.292 Y119.943 E8.20597
G1 X81.494 Y118.407 E8.2575
G1 X81.602 Y117.667 E8.28237
G1 X81.709 Y117.059 E8.30291
G1 X81.842 Y116.41 E8.32494
G1 X82.204 Y114.773 E8.3807
G1 X82.402 Y113.938 E8.40925
G1 X82.557 Y113.355 E8.42931
G1 X82.841 Y112.404 E8.46232
G1 X83.299 Y110.958 E8.51277
G1 X83.524 Y110.277 E8.53663
G1 X83.742 Y109.677 E8.55786
G1 X84.091 Y108.8 E8.58925
G1 X84.698 Y107.336 E8.64196
G1 X84.982 Y106.679 E8.66577
G1 X85.232 Y106.142 E8.68547
G1 X85.545 Y105.516 E8.70875
G1 X86.389 Y103.896 E8.76951
G1 X86.695 Y103.326 E8.79102
G1 X87.021 Y102.761 E8.81272
G1 X87.548 Y101.908 E8.84607
G1 X88.372 Y100.616 E8.89703
G1 X88.745 Y100.048 E8.91964
G1 X89.11 Y99.527 E8.94079
G1 X89.677 Y98.765 E8.97238
G1 X90.546 Y97.632 E9.01988
G1 X91.051 Y96.991 E9.04702
G1 X91.473 Y96.487 E9.06888
G1 X92.147 Y95.731 E9.10257
G1 X93.141 Y94.648 E9.15146
G1 X93.627 Y94.131 E9.17506
G1 X94.077 Y93.68 E9.19625
G0 F6000 X94.352 Y93.97
G1 F1200 X94.837 Y93.512 E9.21844
G1 X96.253 Y92.214 E9.28233
G1 X96.697 Y91.819 E9.30209
G1 X97.154 Y91.436 E9.32192
G1 X97.943 Y90.812 E9.35538
G1 X99.175 Y89.869 E9.40698
G1 X99.696 Y89.481 E9.42859
G1 X100.193 Y89.132 E9.44879
G1 X101.047 Y88.57 E9.48279
G1 X102.33 Y87.755 E9.53335
G1 X102.894 Y87.407 E9.55539
G1 X103.423 Y87.101 E9.57571
G1 X104.147 Y86.71 E9.60308
G1 X105.691 Y85.905 E9.661
G1 X106.236 Y85.63 E9.6813
G1 X106.807 Y85.363 E9.70227
G1 X107.672 Y84.991 E9.73358
G1 X109.152 Y84.38 E9.78684
G1 X109.741 Y84.145 E9.80793
G1 X110.325 Y83.931 E9.82862
G1 X111.256 Y83.623 E9.86123
G1 X112.71 Y83.165 E9.91194
G1 X113.414 Y82.955 E9.93637
G1 X113.988 Y82.802 E9.95613
G1 X114.867 Y82.593 E9.98618
G1 X116.448 Y82.243 E10.04004
G1 X117.076 Y82.113 E10.06137
G1 X117.681 Y82.006 E10.0818
G1 X118.653 Y81.864 E10.11447
G1 X120.169 Y81.666 E10.16532
G1 X120.877 Y81.584 E10.18903
G1 X121.467 Y81.533 E10.20873
G1 X122.455 Y81.475 E10.24164
G1 X123.799 Y81.416 E10.28639
G1 X124.668 Y81.39 E10.3153
G1 X125.278 Y81.389 E10.33559
G1 X126.223 Y81.417 E10.36704
G1 X127.758 Y81.486 E10.41814
G1 X128.467 Y81.527 E10.44176
G1 X129.072 Y81.579 E10.46196
G1 X130.004 Y81.688 E10.49317
G1 X131.535 Y81.89 E10.54453
G1 X132.275 Y81.998 E10.56941
G1 X132.861 Y82.101 E10.5892
G1 X133.504 Y82.233 E10.61103
G1 X135.306 Y82.633 E10.67242
G1 X135.97 Y82.791 E10.69512
G1 X136.531 Y82.941 E10.71444
G1 X137.296 Y83.168 E10.74098
G1 X138.785 Y83.637 E10.7929
G1 X139.597 Y83.904 E10.82133
G1 X140.176 Y84.114 E10.84182
G1 X141.047 Y84.46 E10.87299
G1 X142.505 Y85.065 E10.92549
G1 X143.162 Y85.349 E10.9493
G1 X143.68 Y85.59 E10.9683
G1 X144.299 Y85.9 E10.99132
G1 X145.921 Y86.745 E11.05215
G1 X146.492 Y87.052 E11.07372
G1 X147.027 Y87.36 E11.09425
G1 X147.734 Y87.795 E11.12186
G1 X149.044 Y88.629 E11.17351
G1 X149.732 Y89.08 E11.20087
G1 X150.235 Y89.431 E11.22127
G1 X150.991 Y89.994 E11.25262
G1 X152.237 Y90.951 E11.30488
G1 X152.762 Y91.365 E11.32711
G1 X153.247 Y91.772 E11.34817
G1 X153.968 Y92.415 E11.3803
G1 X155.08 Y93.434 E11.43047
G1 X155.6 Y93.923 E11.45421
G1 X156.035 Y94.357 E11.47465
G1 X156.487 Y94.836 E11.49655
G1 X157.752 Y96.216 E11.55882
G1 X158.176 Y96.692 E11.58002
G1 X158.564 Y97.154 E11.60009
G1 X159.188 Y97.943 E11.63354
G1 X160.131 Y99.175 E11.68515
G1 X160.519 Y99.696 E11.70675
G1 X160.868 Y100.193 E11.72695
G1 X161.43 Y101.047 E11.76095
G1 X162.245 Y102.33 E11.81151
G1 X162.593 Y102.894 E11.83355
G1 X162.899 Y103.423 E11.85388
G1 X163.29 Y104.147 E11.88124
G1 X164.095 Y105.691 E11.93916
G1 X164.37 Y106.236 E11.95946
G1 X164.637 Y106.807 E11.98043
G1 X165.009 Y107.672 E12.01175
G1 X165.62 Y109.152 E12.065
G1 X165.855 Y109.741 E12.08609
G1 X166.069 Y110.325 E12.10678
G1 X166.377 Y111.256 E12.13939
G1 X166.834 Y112.706 E12.18996
G1 X167.044 Y113.409 E12.21436
G1 X167.199 Y113.99 E12.23436
G1 X167.407 Y114.867 E12.26434
G1 X167.757 Y116.448 E12.3182
G1 X167.887 Y117.076 E12.33953
G1 X167.994 Y117.681 E12.35996
G1 X168.136 Y118.653 E12.39264
G1 X168.314 Y120.009 E12.43812
G1 X168.415 Y120.872 E12.46702
G1 X168.467 Y121.467 E12.48689
G1 X168.525 Y122.455 E12.51981
G1 X168.584 Y123.799 E12.56455
G1 X168.61 Y124.666 E12.5934
G1 X168.611 Y125.277 E12.61372
G1 X168.583 Y126.223 E12.6452
G1 X168.514 Y127.758 E12.69631
G1 X168.473 Y128.467 E12.71993
G1 X168.421 Y129.072 E12.74012
G1 X168.312 Y130.004 E12.77133
G1 X168.11 Y131.535 E12.8227
G1 X168.002 Y132.275 E12.84757
G1 X167.899 Y132.861 E12.86736
G1 X167.767 Y133.504 E12.88919
G1 X167.367 Y135.306 E12.95058
G1 X167.209 Y135.97 E12.97329
G1 X167.059 Y136.531 E12.9926
G1 X166.832 Y137.296 E13.01914
G1 X166.363 Y138.785 E13.07106
G1 X166.096 Y139.597 E13.09949
G1 X165.886 Y140.176 E13.11998
G1 X165.539 Y141.048 E13.15119
G1 X164.961 Y142.442 E13.20138
G1 X164.656 Y143.15 E13.22703
G1 X164.41 Y143.68 E13.24646
G1 X164.186 Y144.13 E13.26318
G1 X163.347 Y145.746 E13.32374
G1 X162.953 Y146.483 E13.35153
G1 X162.639 Y147.029 E13.37248
G1 X162.115 Y147.877 E13.40564
G1 X161.293 Y149.164 E13.45643
G1 X160.92 Y149.732 E13.47903
G1 X160.569 Y150.235 E13.49943
G1 X160.006 Y150.991 E13.53078
G1 X159.049 Y152.237 E13.58304
G1 X158.635 Y152.762 E13.60528
G1 X158.228 Y153.247 E13.62633
G1 X157.585 Y153.968 E13.65847
G1 X156.563 Y155.083 E13.70877
G1 X156.067 Y155.61 E13.73284
G1 X155.643 Y156.035 E13.75281
G1 X155.165 Y156.487 E13.77469
G1 X153.769 Y157.767 E13.83768
G1 X153.306 Y158.179 E13.8583
G1 X152.843 Y158.567 E13.87839
G1 X152.057 Y159.188 E13.91171
G1 X150.825 Y160.131 E13.96331
G1 X150.304 Y160.519 E13.98492
G1 X149.807 Y160.868 E14.00511
G1 X148.953 Y161.43 E14.03912
G1 X147.67 Y162.245 E14.08967
G1 X147.106 Y162.593 E14.11171
G1 X146.577 Y162.899 E14.13204
G1 X145.853 Y163.29 E14.15941
G1 X144.309 Y164.095 E14.21732
G1 X143.764 Y164.37 E14.23763
G1 X143.193 Y164.637 E14.25859
G1 X142.328 Y165.009 E14.28991
G1 X140.848 Y165.62 E14.34316
G1 X140.259 Y165.855 E14.36426
G1 X139.675 Y166.069 E14.38494
G1 X138.744 Y166.377 E14.41756
G1 X137.29 Y166.835 E14.46826
G1 X136.586 Y167.045 E14.4927
G1 X136.012 Y167.198 E14.51245
G1 X135.133 Y167.407 E14.5425
G1 X133.552 Y167.757 E14.59636
G1 X132.924 Y167.887 E14.61769
G1 X132.319 Y167.994 E14.63813
G1 X131.347 Y168.136 E14.6708
G1 X129.831 Y168.334 E14.72165
G1 X129.123 Y168.416 E14.74535
G1 X128.533 Y168.467 E14.76505
G1 X127.545 Y168.525 E14.79797
G1 X126.201 Y168.584 E14.84271
G1 X125.332 Y168.61 E14.87163
G1 X124.722 Y168.611 E14.89192
G1 X123.777 Y168.583 E14.92336
G1 X122.242 Y168.514 E14.97447
G1 X121.533 Y168.473 E14.99809
G1 X120.928 Y168.421 E15.01829
G1 X119.996 Y168.312 E15.0495
G1 X118.465 Y168.11 E15.10086
G1 X117.725 Y168.002 E15.12573
G1 X117.139 Y167.899 E15.14552
G1 X116.496 Y167.767 E15.16735
G1 X114.694 Y167.367 E15.22875
G1 X114.03 Y167.209 E15.25145
G1 X113.469 Y167.059 E15.27076
G1 X112.704 Y166.832 E15.2973
G1 X111.215 Y166.363 E15.34923
G1 X110.403 Y166.096 E15.37766
G1 X109.824 Y165.886 E15.39814
G1 X108.949 Y165.538 E15.42946
G1 X107.499 Y164.936 E15.48168
G1 X106.841 Y164.652 E15.50552
G1 X106.318 Y164.409 E15.5247
G1 X105.701 Y164.1 E15.54765
G1 X104.079 Y163.255 E15.60848
G1 X103.508 Y162.948 E15.63004
G1 X102.973 Y162.64 E15.65057
G1 X102.266 Y162.205 E15.67818
G1 X100.956 Y161.371 E15.72983
G1 X100.268 Y160.92 E15.75719
G1 X99.765 Y160.569 E15.77759
G1 X99.009 Y160.006 E15.80895
G1 X97.761 Y159.048 E15.86127
G1 X97.235 Y158.633 E15.88356
G1 X96.752 Y158.228 E15.90452
G1 X96.032 Y157.585 E15.93663
G1 X94.917 Y156.563 E15.98694
G1 X94.39 Y156.067 E16.01101
G1 X93.965 Y155.643 E16.03097
G1 X93.513 Y155.165 E16.05286
G1 X92.234 Y153.77 E16.1158
G1 X91.821 Y153.306 E16.13646
G1 X91.432 Y152.842 E16.1566
G1 X90.81 Y152.055 E16.18997
G1 X89.871 Y150.828 E16.24136
